;FLAVOR:Marlin
;TIME:1961
;Filament used: 0.969862m
;Layer height: 0.2
;MINX:76.971
;MINY:101.971
;MINZ:0.2
;MAXX:158.028
;MAXY:133.029
;MAXZ:24.2
;Generated with Cura_SteamEngine 5.0.0
M82 ;absolute extrusion mode
; Ender 3 Custom Start G-code
M140 S60 ; start preheating the bed
M104 S200 ?T0 ; start preheating hotend
G92 E0 ; Reset Extruder
G28 ; Home all axes
G29 ;
G1 Z2.0 F3000 ; Move Z Axis up little to prevent scratching of Heat Bed
G1 X0.1 Y20 Z0.3 F5000.0 ; Move to start position
G1 X0.1 Y200.0 Z0.3 F1500.0 E15 ; Draw the first line
G1 X0.4 Y200.0 Z0.3 F5000.0 ; Move to side a little
G1 X0.4 Y20 Z0.3 F1500.0 E30 ; Draw the second line
G92 E0 ; Reset Extruder
G1 Z2.0 F3000 ; Move Z Axis up little to prevent scratching of Heat Bed
G1 X5 Y20 Z0.3 F5000.0 ; Move over to prevent blob squish
G92 E0
G92 E0
G1 F2700 E-5
;LAYER_COUNT:121
;LAYER:0
M107
G0 F6000 X131.009 Y107.084 Z0.2
G0 X127.159 Y115.226
;TYPE:SKIRT
G1 F2700 E0
G1 F1200 X127.276 Y114.445 E0.02627
G1 X127.457 Y113.727 E0.05089
G1 X127.896 Y112.28 E0.10119
G1 X128.163 Y111.536 E0.12748
G1 X128.479 Y110.87 E0.152
G1 X129.194 Y109.531 E0.20248
G1 X129.601 Y108.854 E0.22876
G1 X130.049 Y108.252 E0.25371
G1 X131.009 Y107.084 E0.304
G1 X131.541 Y106.5 E0.33028
G1 X132.081 Y106.012 E0.35448
G1 X133.251 Y105.05 E0.40486
G1 X133.886 Y104.58 E0.43114
G1 X134.531 Y104.194 E0.45614
G1 X135.87 Y103.479 E0.50663
G1 X136.584 Y103.143 E0.53287
G1 X137.281 Y102.896 E0.55747
G1 X138.729 Y102.457 E0.60779
G1 X139.495 Y102.266 E0.63405
G1 X140.225 Y102.159 E0.65859
G1 X141.733 Y102.01 E0.70899
G1 X142.522 Y101.972 E0.73526
G1 X143.267 Y102.01 E0.76007
G1 X144.775 Y102.159 E0.81047
G1 X145.556 Y102.276 E0.83674
G1 X146.271 Y102.457 E0.86127
G1 X147.719 Y102.896 E0.9116
G1 X148.462 Y103.163 E0.93786
G1 X149.13 Y103.479 E0.96243
G1 X150.469 Y104.194 E1.01292
G1 X151.146 Y104.601 E1.03919
G1 X151.748 Y105.049 E1.06415
G1 X152.916 Y106.009 E1.11444
G1 X153.5 Y106.541 E1.14071
G1 X153.988 Y107.081 E1.16492
G1 X154.95 Y108.251 E1.2153
G1 X155.42 Y108.886 E1.24158
G1 X155.806 Y109.531 E1.26658
G1 X156.521 Y110.87 E1.31707
G1 X156.857 Y111.584 E1.34331
G1 X157.104 Y112.28 E1.36787
G1 X157.543 Y113.727 E1.41817
G1 X157.734 Y114.493 E1.44443
G1 X157.841 Y115.224 E1.469
G1 X157.99 Y116.731 E1.51937
G1 X158.028 Y117.519 E1.5456
G1 X157.99 Y118.264 E1.57042
G1 X157.841 Y119.774 E1.62088
G1 X157.724 Y120.555 E1.64715
G1 X157.543 Y121.271 E1.67171
G1 X157.104 Y122.719 E1.72204
G1 X156.837 Y123.462 E1.7483
G1 X156.521 Y124.128 E1.77282
G1 X155.808 Y125.464 E1.82318
G1 X155.402 Y126.141 E1.84944
G1 X154.954 Y126.743 E1.8744
G1 X153.992 Y127.914 E1.9248
G1 X153.46 Y128.498 E1.95108
G1 X152.916 Y128.99 E1.97547
G1 X151.746 Y129.951 E2.02583
G1 X151.111 Y130.421 E2.05211
G1 X150.473 Y130.802 E2.07682
G1 X149.134 Y131.518 E2.12733
G1 X148.42 Y131.855 E2.15359
G1 X147.719 Y132.104 E2.17833
G1 X146.271 Y132.543 E2.22865
G1 X145.505 Y132.734 E2.25491
G1 X144.775 Y132.841 E2.27945
G1 X143.267 Y132.99 E2.32985
G1 X142.478 Y133.028 E2.35612
G1 X141.733 Y132.99 E2.38093
G1 X140.225 Y132.841 E2.43134
G1 X139.444 Y132.724 E2.4576
G1 X138.729 Y132.543 E2.48213
G1 X137.281 Y132.104 E2.53246
G1 X136.538 Y131.837 E2.55872
G1 X135.87 Y131.521 E2.5833
G1 X134.531 Y130.806 E2.63378
G1 X133.854 Y130.399 E2.66006
G1 X133.251 Y129.95 E2.68506
G1 X132.081 Y128.988 E2.73544
G1 X131.497 Y128.456 E2.76172
G1 X131.005 Y127.911 E2.78614
G1 X130.044 Y126.74 E2.83652
G1 X129.575 Y126.105 E2.86278
G1 X129.195 Y125.468 E2.88745
G1 X128.481 Y124.132 E2.93783
G1 X128.144 Y123.418 E2.96409
G1 X127.896 Y122.719 E2.98876
G1 X127.457 Y121.271 E3.03908
G1 X127.266 Y120.505 E3.06534
G1 X127.159 Y119.776 E3.08985
G1 X127.01 Y118.27 E3.14018
G1 X126.972 Y117.481 E3.16645
G1 X127.01 Y116.737 E3.19123
G1 X127.159 Y115.226 E3.24173
G0 F6000 X127.372 Y117.462
G1 F1200 X127.408 Y116.776 E3.26458
G1 X127.557 Y115.265 E3.31508
G1 X127.672 Y114.504 E3.34068
G1 X127.84 Y113.843 E3.36336
G1 X128.279 Y112.396 E3.41366
G1 X128.54 Y111.672 E3.43925
G1 X128.832 Y111.058 E3.46187
G1 X129.547 Y109.719 E3.51235
G1 X129.944 Y109.061 E3.53791
G1 X130.358 Y108.506 E3.56094
G1 X131.318 Y107.338 E3.61123
G1 X131.837 Y106.77 E3.63682
G1 X132.335 Y106.321 E3.65912
G1 X133.505 Y105.359 E3.7095
G1 X134.124 Y104.902 E3.73509
G1 X134.719 Y104.547 E3.75814
G1 X136.058 Y103.832 E3.80862
G1 X136.755 Y103.506 E3.83422
G1 X137.397 Y103.278 E3.85687
G1 X138.845 Y102.839 E3.9072
G1 X139.592 Y102.655 E3.93279
G1 X140.264 Y102.557 E3.95538
G1 X141.772 Y102.408 E4.00578
G1 X142.541 Y102.372 E4.03138
G1 X143.228 Y102.408 E4.05426
G1 X144.736 Y102.557 E4.10466
G1 X145.496 Y102.672 E4.13023
G1 X146.155 Y102.839 E4.15284
G1 X147.603 Y103.278 E4.20316
G1 X148.326 Y103.539 E4.22873
G1 X148.942 Y103.832 E4.25142
G1 X150.281 Y104.547 E4.30191
G1 X150.939 Y104.944 E4.32747
G1 X151.494 Y105.358 E4.35049
G1 X152.662 Y106.318 E4.40078
G1 X153.23 Y106.837 E4.42637
G1 X153.679 Y107.335 E4.44867
G1 X154.641 Y108.505 E4.49905
G1 X155.098 Y109.124 E4.52464
G1 X155.453 Y109.719 E4.54769
G1 X156.168 Y111.058 E4.59817
G1 X156.494 Y111.755 E4.62377
G1 X156.721 Y112.396 E4.64638
G1 X157.16 Y113.843 E4.69668
G1 X157.345 Y114.589 E4.72224
G1 X157.443 Y115.263 E4.74489
G1 X157.592 Y116.77 E4.79526
G1 X157.628 Y117.538 E4.82083
G1 X157.592 Y118.225 E4.84372
G1 X157.443 Y119.735 E4.89418
G1 X157.328 Y120.495 E4.91975
G1 X157.161 Y121.155 E4.94239
G1 X156.722 Y122.603 E4.99272
G1 X156.461 Y123.326 E5.01828
G1 X156.168 Y123.94 E5.04091
G1 X155.455 Y125.276 E5.09128
G1 X155.059 Y125.935 E5.11685
G1 X154.645 Y126.489 E5.13985
G1 X153.683 Y127.66 E5.19026
G1 X153.164 Y128.229 E5.21587
G1 X152.662 Y128.681 E5.23834
G1 X151.492 Y129.642 E5.2887
G1 X150.873 Y130.099 E5.31429
G1 X150.284 Y130.45 E5.33709
G1 X148.945 Y131.166 E5.3876
G1 X148.249 Y131.493 E5.41317
G1 X147.603 Y131.722 E5.43597
G1 X146.155 Y132.161 E5.48629
G1 X145.408 Y132.345 E5.51188
G1 X144.736 Y132.443 E5.53447
G1 X143.228 Y132.592 E5.58487
G1 X142.459 Y132.628 E5.61048
G1 X141.772 Y132.592 E5.63336
G1 X140.264 Y132.443 E5.68376
G1 X139.504 Y132.328 E5.70932
G1 X138.845 Y132.161 E5.73193
G1 X137.397 Y131.722 E5.78226
G1 X136.674 Y131.461 E5.80782
G1 X136.058 Y131.168 E5.83051
G1 X134.719 Y130.453 E5.881
G1 X134.061 Y130.056 E5.90656
G1 X133.505 Y129.641 E5.92964
G1 X132.335 Y128.679 E5.98002
G1 X131.767 Y128.16 E6.00561
G1 X131.315 Y127.657 E6.0281
G1 X130.354 Y126.486 E6.07848
G1 X129.897 Y125.867 E6.10407
G1 X129.548 Y125.28 E6.12679
G1 X128.834 Y123.944 E6.17717
G1 X128.507 Y123.248 E6.20275
G1 X128.278 Y122.603 E6.22551
G1 X127.839 Y121.155 E6.27584
G1 X127.655 Y120.408 E6.30142
G1 X127.557 Y119.737 E6.32398
G1 X127.408 Y118.231 E6.37431
G1 X127.372 Y117.462 E6.39992
G0 F6000 X127.772 Y117.444
G1 F1200 X127.806 Y116.815 E6.42087
G1 X127.955 Y115.304 E6.47137
G1 X128.068 Y114.565 E6.49623
G1 X128.222 Y113.959 E6.51703
G1 X128.661 Y112.512 E6.56732
G1 X128.917 Y111.809 E6.59221
G1 X129.185 Y111.247 E6.61292
G1 X129.9 Y109.908 E6.6634
G1 X130.287 Y109.268 E6.68828
G1 X130.667 Y108.76 E6.70938
G1 X131.627 Y107.592 E6.75967
G1 X132.132 Y107.041 E6.78452
G1 X132.589 Y106.63 E6.80497
G1 X133.759 Y105.668 E6.85535
G1 X134.362 Y105.224 E6.88025
G1 X134.908 Y104.9 E6.90137
G1 X136.247 Y104.185 E6.95186
G1 X136.925 Y103.869 E6.97674
G1 X137.513 Y103.661 E6.99748
G1 X138.961 Y103.222 E7.04781
G1 X139.688 Y103.044 E7.0727
G1 X140.304 Y102.955 E7.0934
G1 X141.812 Y102.806 E7.1438
G1 X142.559 Y102.772 E7.16867
G1 X143.188 Y102.806 E7.18962
G1 X144.696 Y102.955 E7.24002
G1 X145.436 Y103.068 E7.26492
G1 X146.039 Y103.222 E7.28562
G1 X147.487 Y103.661 E7.33595
G1 X148.19 Y103.916 E7.36082
G1 X148.753 Y104.185 E7.38157
G1 X150.092 Y104.9 E7.43206
G1 X150.732 Y105.287 E7.45694
G1 X151.24 Y105.667 E7.47804
G1 X152.408 Y106.627 E7.52832
G1 X152.959 Y107.132 E7.55318
G1 X153.37 Y107.589 E7.57362
G1 X154.332 Y108.759 E7.624
G1 X154.776 Y109.362 E7.64891
G1 X155.1 Y109.908 E7.67003
G1 X155.815 Y111.247 E7.72051
G1 X156.131 Y111.925 E7.74539
G1 X156.339 Y112.512 E7.7661
G1 X156.778 Y113.959 E7.8164
G1 X156.956 Y114.685 E7.84126
G1 X157.045 Y115.302 E7.86199
G1 X157.194 Y116.809 E7.91236
G1 X157.228 Y117.557 E7.93727
G1 X157.194 Y118.185 E7.95818
G1 X157.045 Y119.695 E8.00865
G1 X156.932 Y120.435 E8.03355
G1 X156.778 Y121.039 E8.05428
G1 X156.339 Y122.487 E8.10461
G1 X156.084 Y123.19 E8.12948
G1 X155.816 Y123.752 E8.15019
G1 X155.103 Y125.088 E8.20055
G1 X154.716 Y125.728 E8.22543
G1 X154.336 Y126.235 E8.2465
G1 X153.374 Y127.406 E8.29691
G1 X152.869 Y127.958 E8.32179
G1 X152.408 Y128.372 E8.3424
G1 X151.238 Y129.333 E8.39276
G1 X150.635 Y129.776 E8.41765
G1 X150.096 Y130.097 E8.43851
G1 X148.757 Y130.813 E8.48901
G1 X148.079 Y131.13 E8.51391
G1 X147.487 Y131.339 E8.53479
G1 X146.039 Y131.778 E8.58511
G1 X145.312 Y131.956 E8.61001
G1 X144.696 Y132.045 E8.63071
G1 X143.188 Y132.194 E8.68111
G1 X142.441 Y132.228 E8.70598
G1 X141.812 Y132.194 E8.72693
G1 X140.304 Y132.045 E8.77733
G1 X139.564 Y131.932 E8.80223
G1 X138.961 Y131.778 E8.82293
G1 X137.513 Y131.339 E8.87325
G1 X136.81 Y131.084 E8.89813
G1 X136.247 Y130.815 E8.91888
G1 X134.908 Y130.1 E8.96937
G1 X134.268 Y129.713 E8.99424
G1 X133.759 Y129.332 E9.01539
G1 X132.589 Y128.37 E9.06577
G1 X132.038 Y127.865 E9.09063
G1 X131.624 Y127.404 E9.11124
G1 X130.663 Y126.233 E9.16162
G1 X130.22 Y125.63 E9.18651
G1 X129.9 Y125.091 E9.20736
G1 X129.186 Y123.755 E9.25774
G1 X128.87 Y123.078 E9.28259
G1 X128.661 Y122.487 E9.30344
G1 X128.222 Y121.039 E9.35376
G1 X128.044 Y120.312 E9.37866
G1 X127.955 Y119.697 E9.39933
G1 X127.806 Y118.191 E9.44966
G1 X127.772 Y117.444 E9.47453
G0 F6000 X128.172 Y117.426
G1 F1200 X128.204 Y116.854 E9.49359
G1 X128.353 Y115.343 E9.54409
G1 X128.464 Y114.625 E9.56825
G1 X128.605 Y114.075 E9.58713
G1 X129.044 Y112.628 E9.63743
G1 X129.293 Y111.945 E9.66161
G1 X129.538 Y111.435 E9.68043
G1 X130.253 Y110.096 E9.73091
G1 X130.63 Y109.475 E9.75508
G1 X130.976 Y109.014 E9.77425
G1 X131.936 Y107.846 E9.82453
G1 X132.428 Y107.311 E9.84871
G1 X132.843 Y106.939 E9.86724
G1 X134.013 Y105.977 E9.91762
G1 X134.599 Y105.547 E9.9418
G1 X135.096 Y105.253 E9.961
G1 X136.435 Y104.538 E10.01149
G1 X137.094 Y104.232 E10.03566
G1 X137.629 Y104.044 E10.05452
G1 X139.077 Y103.605 E10.10484
G1 X139.783 Y103.433 E10.12901
G1 X140.343 Y103.353 E10.14783
G1 X141.851 Y103.204 E10.19823
G1 X142.577 Y103.172 E10.2224
G1 X143.149 Y103.204 E10.24145
G1 X144.657 Y103.353 E10.29185
G1 X145.375 Y103.464 E10.31602
G1 X145.923 Y103.605 E10.33484
G1 X147.371 Y104.044 E10.38516
G1 X148.053 Y104.293 E10.40931
G1 X148.565 Y104.538 E10.42819
G1 X149.904 Y105.253 E10.47868
G1 X150.525 Y105.63 E10.50284
G1 X150.986 Y105.976 E10.52201
G1 X152.154 Y106.936 E10.5723
G1 X152.689 Y107.428 E10.59647
G1 X153.061 Y107.843 E10.61501
G1 X154.023 Y109.013 E10.66539
G1 X154.453 Y109.599 E10.68956
G1 X154.747 Y110.096 E10.70877
G1 X155.462 Y111.435 E10.75925
G1 X155.768 Y112.094 E10.78342
G1 X155.956 Y112.628 E10.80225
G1 X156.395 Y114.075 E10.85254
G1 X156.567 Y114.781 E10.87671
G1 X156.647 Y115.342 E10.89556
G1 X156.796 Y116.849 E10.94593
G1 X156.828 Y117.574 E10.97006
G1 X156.796 Y118.146 E10.98912
G1 X156.647 Y119.656 E11.03958
G1 X156.536 Y120.374 E11.06375
G1 X156.395 Y120.923 E11.0826
G1 X155.956 Y122.371 E11.13293
G1 X155.707 Y123.053 E11.15708
G1 X155.463 Y123.563 E11.17588
G1 X154.75 Y124.899 E11.22625
G1 X154.373 Y125.52 E11.25041
G1 X154.027 Y125.982 E11.26961
G1 X153.065 Y127.153 E11.32001
G1 X152.573 Y127.688 E11.34419
G1 X152.154 Y128.063 E11.36289
G1 X150.984 Y129.024 E11.41325
G1 X150.398 Y129.454 E11.43742
G1 X149.907 Y129.744 E11.45639
G1 X148.568 Y130.46 E11.50689
G1 X147.91 Y130.767 E11.53104
G1 X147.371 Y130.956 E11.55004
G1 X145.923 Y131.395 E11.60036
G1 X145.217 Y131.567 E11.62453
G1 X144.657 Y131.647 E11.64335
G1 X143.149 Y131.796 E11.69375
G1 X142.423 Y131.828 E11.71792
G1 X141.851 Y131.796 E11.73697
G1 X140.343 Y131.647 E11.78737
G1 X139.625 Y131.536 E11.81154
G1 X139.077 Y131.395 E11.83036
G1 X137.629 Y130.956 E11.88068
G1 X136.947 Y130.707 E11.90483
G1 X136.435 Y130.462 E11.92371
G1 X135.096 Y129.747 E11.9742
G1 X134.475 Y129.37 E11.99836
G1 X134.013 Y129.023 E12.01758
G1 X132.843 Y128.061 E12.06796
G1 X132.308 Y127.57 E12.09211
G1 X131.933 Y127.15 E12.11084
G1 X130.972 Y125.979 E12.16122
G1 X130.543 Y125.393 E12.18538
G1 X130.253 Y124.903 E12.20431
G1 X129.539 Y123.567 E12.2547
G1 X129.233 Y122.908 E12.27886
G1 X129.044 Y122.371 E12.2978
G1 X128.605 Y120.923 E12.34812
G1 X128.433 Y120.217 E12.37229
G1 X128.353 Y119.658 E12.39107
G1 X128.204 Y118.152 E12.44141
G1 X128.172 Y117.426 E12.46558
G0 F6000 X128.573 Y117.409
G1 F1200 X128.602 Y116.894 E12.48273
G1 X128.751 Y115.383 E12.53323
G1 X128.86 Y114.687 E12.55666
G1 X128.988 Y114.191 E12.5737
G1 X129.427 Y112.744 E12.624
G1 X129.669 Y112.083 E12.64741
G1 X129.891 Y111.624 E12.66437
G1 X130.606 Y110.285 E12.71485
G1 X130.972 Y109.683 E12.73829
G1 X131.285 Y109.268 E12.75557
G1 X132.245 Y108.1 E12.80586
G1 X132.722 Y107.583 E12.82926
G1 X133.097 Y107.248 E12.84598
G1 X134.267 Y106.286 E12.89636
G1 X134.836 Y105.87 E12.9198
G1 X135.285 Y105.606 E12.93713
G1 X136.624 Y104.891 E12.98761
G1 X137.262 Y104.595 E13.01101
G1 X137.745 Y104.427 E13.02802
G1 X139.193 Y103.988 E13.07834
G1 X139.877 Y103.822 E13.10175
G1 X140.382 Y103.751 E13.11871
G1 X141.89 Y103.602 E13.16911
G1 X142.594 Y103.573 E13.19255
G1 X143.11 Y103.602 E13.20974
G1 X144.618 Y103.751 E13.26014
G1 X145.313 Y103.86 E13.28354
G1 X145.807 Y103.988 E13.30051
G1 X147.255 Y104.427 E13.35084
G1 X147.916 Y104.669 E13.37425
G1 X148.376 Y104.891 E13.39124
G1 X149.715 Y105.606 E13.44172
G1 X150.317 Y105.972 E13.46516
G1 X150.732 Y106.285 E13.48244
G1 X151.9 Y107.245 E13.53273
G1 X152.417 Y107.722 E13.55613
G1 X152.752 Y108.097 E13.57285
G1 X153.714 Y109.267 E13.62323
G1 X154.13 Y109.836 E13.64667
G1 X154.394 Y110.285 E13.664
G1 X155.109 Y111.624 E13.71448
G1 X155.405 Y112.262 E13.73788
G1 X155.573 Y112.744 E13.75485
G1 X156.012 Y114.191 E13.80515
G1 X156.178 Y114.875 E13.82856
G1 X156.249 Y115.381 E13.84555
G1 X156.398 Y116.888 E13.89592
G1 X156.427 Y117.591 E13.91932
G1 X156.398 Y118.107 E13.93651
G1 X156.249 Y119.617 E13.98698
G1 X156.14 Y120.312 E14.01038
G1 X156.012 Y120.807 E14.02738
G1 X155.573 Y122.255 E14.07771
G1 X155.331 Y122.916 E14.10112
G1 X155.11 Y123.375 E14.11806
G1 X154.397 Y124.711 E14.16843
G1 X154.031 Y125.312 E14.19183
G1 X153.718 Y125.728 E14.20915
G1 X152.756 Y126.899 E14.25956
G1 X152.279 Y127.416 E14.28295
G1 X151.9 Y127.754 E14.29984
G1 X150.73 Y128.715 E14.3502
G1 X150.162 Y129.13 E14.3736
G1 X149.719 Y129.391 E14.3907
G1 X148.38 Y130.107 E14.4412
G1 X147.741 Y130.404 E14.46464
G1 X147.255 Y130.573 E14.48175
G1 X145.807 Y131.012 E14.53208
G1 X145.123 Y131.178 E14.55549
G1 X144.618 Y131.249 E14.57245
G1 X143.11 Y131.398 E14.62285
G1 X142.406 Y131.427 E14.64628
G1 X141.89 Y131.398 E14.66347
G1 X140.382 Y131.249 E14.71387
G1 X139.687 Y131.14 E14.73727
G1 X139.193 Y131.012 E14.75425
G1 X137.745 Y130.573 E14.80457
G1 X137.084 Y130.331 E14.82798
G1 X136.624 Y130.109 E14.84497
G1 X135.285 Y129.394 E14.89546
G1 X134.683 Y129.028 E14.91889
G1 X134.267 Y128.714 E14.93623
G1 X133.097 Y127.752 E14.98661
G1 X132.58 Y127.275 E15.01
G1 X132.242 Y126.896 E15.02689
G1 X131.281 Y125.725 E15.07728
G1 X130.866 Y125.157 E15.10067
G1 X130.606 Y124.714 E15.11776
G1 X129.892 Y123.378 E15.16814
G1 X129.596 Y122.74 E15.19153
G1 X129.427 Y122.255 E15.20862
G1 X128.988 Y120.807 E15.25894
G1 X128.822 Y120.123 E15.28235
G1 X128.751 Y119.618 E15.29931
G1 X128.602 Y118.112 E15.34965
G1 X128.573 Y117.409 E15.37305
G0 F6000 X128.973 Y117.393
G1 F1200 X129 Y116.933 E15.38838
G1 X129.149 Y115.422 E15.43888
G1 X129.255 Y114.749 E15.46154
G1 X129.371 Y114.307 E15.47673
G1 X129.81 Y112.86 E15.52703
G1 X130.045 Y112.221 E15.54967
G1 X130.244 Y111.812 E15.5648
G1 X130.959 Y110.473 E15.61529
G1 X131.314 Y109.892 E15.63793
G1 X131.594 Y109.522 E15.65337
G1 X132.554 Y108.354 E15.70365
G1 X133.017 Y107.854 E15.72632
G1 X133.351 Y107.557 E15.74118
G1 X134.521 Y106.595 E15.79156
G1 X135.072 Y106.194 E15.81423
