;FLAVOR:Marlin
;TIME:2925
;Filament used: 2.99799m
;Layer height: 0.2
;MINX:18
;MINY:73.142
;MINZ:0.2
;MAXX:217
;MAXY:161.858
;MAXZ:1
;Generated with Cura_SteamEngine 5.0.0
M82 ;absolute extrusion mode
; Ender 3 Custom Start G-code
M140 S60 ; start preheating the bed
M104 S200 ?T0 ; start preheating hotend
G92 E0 ; Reset Extruder
G28 ; Home all axes
G29 ;
G1 Z2.0 F3000 ; Move Z Axis up little to prevent scratching of Heat Bed
G1 X0.1 Y20 Z0.3 F5000.0 ; Move to start position
G1 X0.1 Y200.0 Z0.3 F1500.0 E15 ; Draw the first line
G1 X0.4 Y200.0 Z0.3 F5000.0 ; Move to side a little
G1 X0.4 Y20 Z0.3 F1500.0 E30 ; Draw the second line
G92 E0 ; Reset Extruder
G1 Z2.0 F3000 ; Move Z Axis up little to prevent scratching of Heat Bed
G1 X5 Y20 Z0.3 F5000.0 ; Move over to prevent blob squish
G92 E0
G92 E0
G1 F2700 E-5
;LAYER_COUNT:5
;LAYER:0
M107
G0 F6000 X27.01 Y73.91 Z0.2
G0 X18.16 Y84.572
;TYPE:SKIRT
G1 F2700 E0
G1 F1200 X18.358 Y83.552 E0.0864
G1 X18.635 Y82.55 E0.17284
G1 X18.988 Y81.573 E0.25922
G1 X19.415 Y80.626 E0.34559
G1 X19.913 Y79.714 E0.432
G1 X20.48 Y78.843 E0.51841
G1 X21.113 Y78.019 E0.60481
G1 X21.807 Y77.246 E0.69119
G1 X22.558 Y76.528 E0.77759
G1 X23.362 Y75.87 E0.86397
G1 X24.215 Y75.276 E0.9504
G1 X25.111 Y74.75 E1.03679
G1 X26.044 Y74.294 E1.12314
G1 X27.01 Y73.91 E1.20958
G1 X28.003 Y73.603 E1.29601
G1 X29.016 Y73.373 E1.38238
G1 X30.044 Y73.221 E1.46879
G1 X31.5 Y73.142 E1.59003
G1 X53.5 Y73.142 E3.41934
G1 X54.538 Y73.182 E3.50571
G1 X54.969 Y73.232 E3.54179
G1 X55.044 Y73.221 E3.5481
G1 X56.5 Y73.142 E3.66934
G1 X78.5 Y73.142 E5.49865
G1 X79.538 Y73.182 E5.58502
G1 X79.969 Y73.232 E5.6211
G1 X80.044 Y73.221 E5.6274
G1 X81.5 Y73.142 E5.74865
G1 X103.5 Y73.142 E7.57796
G1 X104.538 Y73.182 E7.66433
G1 X104.969 Y73.232 E7.70041
G1 X105.044 Y73.221 E7.70671
G1 X106.5 Y73.142 E7.82796
G1 X128.5 Y73.142 E9.65726
G1 X129.538 Y73.182 E9.74364
G1 X130.57 Y73.302 E9.83003
G1 X131.59 Y73.5 E9.91642
G1 X132.592 Y73.777 E10.00287
G1 X133.569 Y74.13 E10.08924
G1 X134.516 Y74.557 E10.17562
G1 X135.428 Y75.055 E10.26202
G1 X136.299 Y75.622 E10.34844
G1 X137.123 Y76.255 E10.43484
G1 X137.896 Y76.949 E10.52122
G1 X138.614 Y77.7 E10.60761
G1 X139.272 Y78.504 E10.694
G1 X139.866 Y79.357 E10.78043
G1 X140.392 Y80.253 E10.86682
G1 X140.848 Y81.186 E10.95317
G1 X141.232 Y82.152 E11.03961
G1 X141.539 Y83.145 E11.12603
G1 X141.769 Y84.158 E11.21241
G1 X141.921 Y85.186 E11.29882
G1 X142 Y86.642 E11.42006
G1 X142 Y108.642 E13.24937
G1 X141.96 Y109.68 E13.33574
G1 X141.84 Y110.712 E13.42213
G1 X141.642 Y111.732 E13.50853
G1 X141.365 Y112.734 E13.59497
G1 X141.32 Y112.858 E13.60594
G1 X153.5 Y112.858 E14.61871
G1 X154.538 Y112.898 E14.70508
G1 X154.969 Y112.948 E14.74116
G1 X155.044 Y112.937 E14.74746
G1 X156.5 Y112.858 E14.86871
G1 X178.5 Y112.858 E16.69802
G1 X179.538 Y112.898 E16.78439
G1 X179.969 Y112.948 E16.82047
G1 X180.044 Y112.937 E16.82677
G1 X181.5 Y112.858 E16.94802
G1 X203.5 Y112.858 E18.77732
G1 X204.538 Y112.898 E18.8637
G1 X205.57 Y113.018 E18.95009
G1 X206.59 Y113.216 E19.03648
G1 X207.592 Y113.493 E19.12293
G1 X208.569 Y113.846 E19.2093
G1 X209.516 Y114.273 E19.29568
G1 X210.428 Y114.771 E19.38208
G1 X211.299 Y115.338 E19.4685
G1 X212.123 Y115.971 E19.5549
G1 X212.896 Y116.665 E19.64128
G1 X213.614 Y117.416 E19.72767
G1 X214.272 Y118.22 E19.81406
G1 X214.866 Y119.073 E19.90049
G1 X215.392 Y119.969 E19.98688
G1 X215.848 Y120.902 E20.07323
G1 X216.232 Y121.868 E20.15967
G1 X216.539 Y122.861 E20.24609
G1 X216.769 Y123.874 E20.33247
G1 X216.921 Y124.902 E20.41888
G1 X217 Y126.358 E20.54012
G1 X217 Y148.358 E22.36943
G1 X216.96 Y149.396 E22.4558
G1 X216.84 Y150.428 E22.54219
G1 X216.642 Y151.448 E22.62859
G1 X216.365 Y152.45 E22.71503
G1 X216.012 Y153.427 E22.80141
G1 X215.585 Y154.374 E22.88779
G1 X215.087 Y155.286 E22.97419
G1 X214.52 Y156.157 E23.06061
G1 X213.887 Y156.981 E23.147
G1 X213.193 Y157.754 E23.23338
G1 X212.442 Y158.472 E23.31978
G1 X211.638 Y159.13 E23.40616
G1 X210.785 Y159.724 E23.49259
G1 X209.889 Y160.25 E23.57899
G1 X208.956 Y160.706 E23.66534
G1 X207.99 Y161.09 E23.75177
G1 X206.997 Y161.397 E23.8382
G1 X205.984 Y161.627 E23.92457
G1 X204.956 Y161.779 E24.01098
G1 X203.5 Y161.858 E24.13223
G1 X181.5 Y161.858 E25.96153
G1 X180.462 Y161.818 E26.04791
G1 X180.031 Y161.768 E26.08398
G1 X179.956 Y161.779 E26.09029
G1 X178.5 Y161.858 E26.21153
G1 X156.5 Y161.858 E28.04084
G1 X155.462 Y161.818 E28.12721
G1 X155.031 Y161.768 E28.16329
G1 X154.956 Y161.779 E28.1696
G1 X153.5 Y161.858 E28.29084
G1 X131.5 Y161.858 E30.12015
G1 X130.462 Y161.818 E30.20652
G1 X130.031 Y161.768 E30.2426
G1 X129.956 Y161.779 E30.2489
G1 X128.5 Y161.858 E30.37015
G1 X106.5 Y161.858 E32.19946
G1 X105.462 Y161.818 E32.28583
G1 X105.031 Y161.768 E32.32191
G1 X104.956 Y161.779 E32.32821
G1 X103.5 Y161.858 E32.44946
G1 X81.5 Y161.858 E34.27876
G1 X80.462 Y161.818 E34.36514
G1 X80.031 Y161.768 E34.40122
G1 X79.956 Y161.779 E34.40752
G1 X78.5 Y161.858 E34.52876
G1 X56.5 Y161.858 E36.35807
G1 X55.462 Y161.818 E36.44445
G1 X55.031 Y161.768 E36.48052
G1 X54.956 Y161.779 E36.48683
G1 X53.5 Y161.858 E36.60807
G1 X31.5 Y161.858 E38.43738
G1 X30.462 Y161.818 E38.52375
G1 X29.43 Y161.698 E38.61014
G1 X28.41 Y161.5 E38.69654
G1 X27.408 Y161.223 E38.78298
G1 X26.431 Y160.87 E38.86936
G1 X25.484 Y160.443 E38.95574
G1 X24.572 Y159.945 E39.04214
G1 X23.701 Y159.378 E39.12856
G1 X22.877 Y158.745 E39.21495
G1 X22.104 Y158.051 E39.30133
G1 X21.386 Y157.3 E39.38773
G1 X20.728 Y156.496 E39.47411
G1 X20.134 Y155.643 E39.56054
G1 X19.608 Y154.747 E39.64694
G1 X19.152 Y153.814 E39.73329
G1 X18.768 Y152.848 E39.81972
G1 X18.461 Y151.855 E39.90615
G1 X18.231 Y150.842 E39.99252
G1 X18.079 Y149.814 E40.07893
G1 X18 Y148.358 E40.20018
G1 X18 Y126.358 E42.02948
G1 X18.04 Y125.32 E42.11586
G1 X18.16 Y124.288 E42.20225
G1 X18.358 Y123.268 E42.28864
G1 X18.635 Y122.266 E42.37508
G1 X18.988 Y121.289 E42.46146
G1 X19.415 Y120.342 E42.54784
G1 X19.913 Y119.43 E42.63424
G1 X20.48 Y118.559 E42.72066
G1 X21.113 Y117.735 E42.80706
G1 X21.32 Y117.504 E42.83285
G1 X20.728 Y116.78 E42.91061
G1 X20.134 Y115.927 E42.99704
G1 X19.608 Y115.031 E43.08344
G1 X19.152 Y114.098 E43.16979
G1 X18.768 Y113.132 E43.25622
G1 X18.461 Y112.139 E43.34265
G1 X18.231 Y111.126 E43.42902
G1 X18.079 Y110.098 E43.51543
G1 X18 Y108.642 E43.63667
G1 X18 Y86.642 E45.46598
G1 X18.04 Y85.604 E45.55236
G1 X18.16 Y84.572 E45.63875
G0 F6000 X19 Y86.642
G1 F1200 X19.04 Y85.643 E45.72188
G1 X19.16 Y84.65 E45.80505
G1 X19.358 Y83.671 E45.8881
G1 X19.635 Y82.71 E45.97126
G1 X19.987 Y81.774 E46.05441
G1 X20.413 Y80.869 E46.13758
G1 X20.91 Y80.002 E46.22068
G1 X21.474 Y79.177 E46.30378
G1 X22.103 Y78.399 E46.38697
G1 X22.792 Y77.675 E46.47007
G1 X23.536 Y77.007 E46.55321
G1 X24.332 Y76.402 E46.63635
G1 X25.173 Y75.862 E46.71945
G1 X26.055 Y75.39 E46.80263
G1 X26.971 Y74.991 E46.88571
G1 X27.917 Y74.666 E46.96888
G1 X28.886 Y74.418 E47.05205
G1 X29.871 Y74.249 E47.13515
G1 X30.867 Y74.158 E47.21831
G1 X31.5 Y74.142 E47.27096
G1 X53.5 Y74.142 E49.10027
G1 X54.499 Y74.182 E49.1834
G1 X54.975 Y74.24 E49.22328
G1 X55.867 Y74.158 E49.29776
G1 X56.5 Y74.142 E49.35041
G1 X78.5 Y74.142 E51.17972
G1 X79.499 Y74.182 E51.26285
G1 X79.975 Y74.24 E51.30272
G1 X80.867 Y74.158 E51.37721
G1 X81.5 Y74.142 E51.42986
G1 X103.5 Y74.142 E53.25916
G1 X104.499 Y74.182 E53.3423
G1 X104.975 Y74.24 E53.38217
G1 X105.867 Y74.158 E53.45665
G1 X106.5 Y74.142 E53.5093
G1 X128.5 Y74.142 E55.33861
G1 X129.499 Y74.182 E55.42175
G1 X130.492 Y74.302 E55.50491
G1 X131.471 Y74.5 E55.58797
G1 X132.432 Y74.777 E55.67113
G1 X133.368 Y75.129 E55.75428
G1 X134.273 Y75.555 E55.83745
G1 X135.14 Y76.052 E55.92055
G1 X135.965 Y76.616 E56.00364
G1 X136.743 Y77.245 E56.08683
G1 X137.467 Y77.934 E56.16994
G1 X138.135 Y78.678 E56.25308
G1 X138.74 Y79.474 E56.33621
G1 X139.28 Y80.315 E56.41932
G1 X139.752 Y81.197 E56.5025
G1 X140.151 Y82.113 E56.58557
G1 X140.476 Y83.059 E56.66875
G1 X140.724 Y84.028 E56.75192
G1 X140.893 Y85.013 E56.83502
G1 X140.984 Y86.009 E56.91818
G1 X141 Y86.642 E56.97083
G1 X141 Y108.642 E58.80014
G1 X140.96 Y109.641 E58.88327
G1 X140.84 Y110.634 E58.96644
G1 X140.642 Y111.613 E59.04949
G1 X140.365 Y112.574 E59.13265
G1 X140.013 Y113.51 E59.2158
G1 X139.849 Y113.858 E59.24779
G1 X153.5 Y113.858 E60.38288
G1 X154.499 Y113.898 E60.46601
G1 X154.975 Y113.956 E60.50588
G1 X155.867 Y113.874 E60.58037
G1 X156.5 Y113.858 E60.63302
G1 X178.5 Y113.858 E62.46232
G1 X179.499 Y113.898 E62.54546
G1 X179.975 Y113.956 E62.58533
G1 X180.867 Y113.874 E62.65981
G1 X181.5 Y113.858 E62.71246
G1 X203.5 Y113.858 E64.54177
G1 X204.499 Y113.898 E64.62491
G1 X205.492 Y114.018 E64.70807
G1 X206.471 Y114.216 E64.79113
G1 X207.432 Y114.493 E64.87429
G1 X208.368 Y114.845 E64.95744
G1 X209.273 Y115.271 E65.04061
G1 X210.14 Y115.768 E65.1237
G1 X210.965 Y116.332 E65.2068
G1 X211.743 Y116.961 E65.28999
G1 X212.467 Y117.65 E65.3731
G1 X213.135 Y118.394 E65.45624
G1 X213.74 Y119.19 E65.53937
G1 X214.28 Y120.031 E65.62247
G1 X214.752 Y120.913 E65.70565
G1 X215.151 Y121.829 E65.78873
G1 X215.476 Y122.775 E65.87191
G1 X215.724 Y123.744 E65.95507
G1 X215.893 Y124.729 E66.03817
G1 X215.984 Y125.725 E66.12134
G1 X216 Y126.358 E66.17399
G1 X216 Y148.358 E68.0033
G1 X215.96 Y149.357 E68.08643
G1 X215.84 Y150.35 E68.1696
G1 X215.642 Y151.329 E68.25265
G1 X215.365 Y152.29 E68.33581
G1 X215.013 Y153.226 E68.41896
G1 X214.587 Y154.131 E68.50213
G1 X214.09 Y154.998 E68.58523
G1 X213.526 Y155.823 E68.66833
G1 X212.897 Y156.601 E68.75152
G1 X212.208 Y157.325 E68.83462
G1 X211.464 Y157.993 E68.91776
G1 X210.668 Y158.598 E69.0009
G1 X209.827 Y159.138 E69.084
G1 X208.945 Y159.61 E69.16718
G1 X208.029 Y160.009 E69.25026
G1 X207.083 Y160.334 E69.33343
G1 X206.114 Y160.582 E69.4166
G1 X205.129 Y160.751 E69.4997
G1 X204.133 Y160.842 E69.58286
G1 X203.5 Y160.858 E69.63551
G1 X181.5 Y160.858 E71.46482
G1 X180.501 Y160.818 E71.54795
G1 X180.025 Y160.76 E71.58783
G1 X179.133 Y160.842 E71.66231
G1 X178.5 Y160.858 E71.71496
G1 X156.5 Y160.858 E73.54427
G1 X155.501 Y160.818 E73.6274
G1 X155.025 Y160.76 E73.66727
G1 X154.133 Y160.842 E73.74176
G1 X153.5 Y160.858 E73.79441
G1 X131.5 Y160.858 E75.62372
G1 X130.501 Y160.818 E75.70685
G1 X130.025 Y160.76 E75.74672
G1 X129.133 Y160.842 E75.8212
G1 X128.5 Y160.858 E75.87385
G1 X106.5 Y160.858 E77.70316
G1 X105.501 Y160.818 E77.7863
G1 X105.025 Y160.76 E77.82617
G1 X104.133 Y160.842 E77.90065
G1 X103.5 Y160.858 E77.9533
G1 X81.5 Y160.858 E79.78261
G1 X80.501 Y160.818 E79.86574
G1 X80.025 Y160.76 E79.90562
G1 X79.133 Y160.842 E79.9801
G1 X78.5 Y160.858 E80.03275
G1 X56.5 Y160.858 E81.86206
G1 X55.501 Y160.818 E81.94519
G1 X55.025 Y160.76 E81.98506
G1 X54.133 Y160.842 E82.05955
G1 X53.5 Y160.858 E82.1122
G1 X31.5 Y160.858 E83.9415
G1 X30.501 Y160.818 E84.02464
G1 X29.508 Y160.698 E84.10781
G1 X28.529 Y160.5 E84.19086
G1 X27.568 Y160.223 E84.27402
G1 X26.632 Y159.871 E84.35717
G1 X25.727 Y159.445 E84.44034
G1 X24.86 Y158.948 E84.52344
G1 X24.035 Y158.384 E84.60653
G1 X23.257 Y157.755 E84.68972
G1 X22.533 Y157.066 E84.77283
G1 X21.865 Y156.322 E84.85597
G1 X21.26 Y155.526 E84.9391
G1 X20.72 Y154.685 E85.02221
G1 X20.248 Y153.803 E85.10539
G1 X19.849 Y152.887 E85.18847
G1 X19.524 Y151.941 E85.27164
G1 X19.276 Y150.972 E85.35481
G1 X19.107 Y149.987 E85.43791
G1 X19.016 Y148.991 E85.52107
G1 X19 Y148.358 E85.57372
G1 X19 Y126.358 E87.40303
G1 X19.04 Y125.359 E87.48616
G1 X19.16 Y124.366 E87.56933
G1 X19.358 Y123.387 E87.65238
G1 X19.635 Y122.426 E87.73554
G1 X19.987 Y121.49 E87.81869
G1 X20.413 Y120.585 E87.90187
G1 X20.91 Y119.718 E87.98496
G1 X21.474 Y118.893 E88.06806
G1 X22.103 Y118.115 E88.15125
G1 X22.689 Y117.499 E88.22194
G1 X22.533 Y117.35 E88.23988
G1 X21.865 Y116.606 E88.32302
G1 X21.26 Y115.81 E88.40616
G1 X20.72 Y114.969 E88.48926
G1 X20.248 Y114.087 E88.57244
G1 X19.849 Y113.171 E88.65552
G1 X19.524 Y112.225 E88.73869
G1 X19.276 Y111.256 E88.82186
G1 X19.107 Y110.271 E88.90496
G1 X19.016 Y109.275 E88.98812
G1 X19 Y108.642 E89.04077
G1 X19 Y86.642 E90.87008
G0 F6000 X20 Y86.642
G1 F1200 X20.04 Y85.684 E90.94981
G1 X20.16 Y84.732 E91.02959
G1 X20.358 Y83.794 E91.10931
G1 X20.634 Y82.876 E91.18902
G1 X20.986 Y81.984 E91.26875
G1 X21.41 Y81.124 E91.34848
G1 X21.905 Y80.302 E91.42827
G1 X22.467 Y79.525 E91.508
G1 X23.091 Y78.797 E91.58773
G1 X23.774 Y78.124 E91.66746
G1 X24.51 Y77.51 E91.74716
G1 X25.296 Y76.959 E91.82697
G1 X26.124 Y76.476 E91.90668
G1 X26.99 Y76.063 E91.98646
G1 X27.887 Y75.724 E92.06619
G1 X28.809 Y75.461 E92.14591
G1 X29.75 Y75.276 E92.22566
G1 X30.703 Y75.17 E92.30539
G1 X31.5 Y75.142 E92.3717
G1 X53.5 Y75.142 E94.20101
G1 X54.458 Y75.182 E94.28073
G1 X54.991 Y75.249 E94.3254
G1 X55.703 Y75.17 E94.38497
G1 X56.5 Y75.142 E94.45128
G1 X78.5 Y75.142 E96.28059
G1 X79.458 Y75.182 E96.36031
G1 X79.991 Y75.249 E96.40498
G1 X80.703 Y75.17 E96.46455
G1 X81.5 Y75.142 E96.53086
G1 X103.5 Y75.142 E98.36017
G1 X104.458 Y75.182 E98.4399
G1 X104.991 Y75.249 E98.48456
G1 X105.703 Y75.17 E98.54413
G1 X106.5 Y75.142 E98.61044
G1 X128.5 Y75.142 E100.43975
G1 X129.458 Y75.182 E100.51948
G1 X130.41 Y75.302 E100.59926
G1 X131.348 Y75.5 E100.67898
G1 X132.266 Y75.776 E100.75868
G1 X133.158 Y76.128 E100.83842
G1 X134.018 Y76.552 E100.91815
G1 X134.84 Y77.047 E100.99793
G1 X135.617 Y77.609 E101.07767
G1 X136.345 Y78.233 E101.1574
G1 X137.018 Y78.916 E101.23713
G1 X137.632 Y79.652 E101.31682
G1 X138.183 Y80.438 E101.39664
G1 X138.666 Y81.266 E101.47635
G1 X139.079 Y82.132 E101.55612
G1 X139.418 Y83.029 E101.63586
G1 X139.681 Y83.951 E101.71558
G1 X139.866 Y84.892 E101.79532
G1 X139.972 Y85.845 E101.87505
G1 X140 Y86.642 E101.94137
G1 X140 Y108.642 E103.77067
G1 X139.96 Y109.6 E103.8504
G1 X139.84 Y110.552 E103.93019
G1 X139.642 Y111.49 E104.0099
G1 X139.366 Y112.408 E104.08961
G1 X139.014 Y113.3 E104.16934
G1 X138.59 Y114.16 E104.24907
G1 X138.17 Y114.858 E104.31681
G1 X153.5 Y114.858 E105.5915
G1 X154.458 Y114.898 E105.67123
G1 X154.991 Y114.965 E105.7159
G1 X155.703 Y114.886 E105.77546
G1 X156.5 Y114.858 E105.84178
G1 X178.5 Y114.858 E107.67108
G1 X179.458 Y114.898 E107.75081
G1 X179.991 Y114.965 E107.79548
G1 X180.703 Y114.886 E107.85504
G1 X181.5 Y114.858 E107.92136
G1 X203.5 Y114.858 E109.75066
G1 X204.458 Y114.898 E109.83039
G1 X205.41 Y115.018 E109.91018
G1 X206.348 Y115.216 E109.98989
G1 X207.266 Y115.492 E110.0696
G1 X208.158 Y115.844 E110.14933
G1 X209.018 Y116.268 E110.22906
G1 X209.84 Y116.763 E110.30885
G1 X210.617 Y117.325 E110.38858
G1 X211.345 Y117.949 E110.46831
G1 X212.018 Y118.632 E110.54804
G1 X212.632 Y119.368 E110.62774
G1 X213.183 Y120.154 E110.70755
G1 X213.666 Y120.982 E110.78726
G1 X214.079 Y121.848 E110.86704
G1 X214.418 Y122.745 E110.94677
G1 X214.681 Y123.667 E111.0265
G1 X214.866 Y124.608 E111.10624
G1 X214.972 Y125.561 E111.18597
G1 X215 Y126.358 E111.25228
G1 X215 Y148.358 E113.08159
G1 X214.96 Y149.316 E113.16132
G1 X214.84 Y150.268 E113.2411
G1 X214.642 Y151.206 E113.32082
G1 X214.366 Y152.124 E113.40052
G1 X214.014 Y153.016 E113.48026
G1 X213.59 Y153.876 E113.55999
G1 X213.095 Y154.698 E113.63977
G1 X212.533 Y155.475 E113.71951
G1 X211.909 Y156.203 E113.79924
G1 X211.226 Y156.876 E113.87897
G1 X210.49 Y157.49 E113.95866
G1 X209.704 Y158.041 E114.03848
G1 X208.876 Y158.524 E114.11819
G1 X208.01 Y158.937 E114.19796
G1 X207.113 Y159.276 E114.2777
G1 X206.191 Y159.539 E114.35742
G1 X205.25 Y159.724 E114.43716
G1 X204.297 Y159.83 E114.51689
G1 X203.5 Y159.858 E114.58321
G1 X181.5 Y159.858 E116.41251
G1 X180.542 Y159.818 E116.49224
G1 X180.009 Y159.751 E116.53691
G1 X179.297 Y159.83 E116.59647
G1 X178.5 Y159.858 E116.66279
G1 X156.5 Y159.858 E118.49209
G1 X155.542 Y159.818 E118.57182
G1 X155.009 Y159.751 E118.61649
G1 X154.297 Y159.83 E118.67606
G1 X153.5 Y159.858 E118.74237
G1 X131.5 Y159.858 E120.57167
G1 X130.542 Y159.818 E120.6514
G1 X130.009 Y159.751 E120.69607
G1 X129.297 Y159.83 E120.75564
G1 X128.5 Y159.858 E120.82195
G1 X106.5 Y159.858 E122.65126
G1 X105.542 Y159.818 E122.73098
G1 X105.009 Y159.751 E122.77565
G1 X104.297 Y159.83 E122.83522
G1 X103.5 Y159.858 E122.90153
