;FLAVOR:Marlin
;TIME:3289
;Filament used: 0.829656m
;Layer height: 0.12
;MINX:100.683
;MINY:100.683
;MINZ:0.12
;MAXX:134.317
;MAXY:134.317
;MAXZ:42.84
;Generated with Cura_SteamEngine 5.0.0
M82 ;absolute extrusion mode
; Ender 3 Custom Start G-code
M140 S60 ; start preheating the bed
M104 S200 ?T0 ; start preheating hotend
G92 E0 ; Reset Extruder
G28 ; Home all axes
G29 ;
G1 Z2.0 F3000 ; Move Z Axis up little to prevent scratching of Heat Bed
G1 X0.1 Y20 Z0.3 F5000.0 ; Move to start position
G1 X0.1 Y200.0 Z0.3 F1500.0 E15 ; Draw the first line
G1 X0.4 Y200.0 Z0.3 F5000.0 ; Move to side a little
G1 X0.4 Y20 Z0.3 F1500.0 E30 ; Draw the second line
G92 E0 ; Reset Extruder
G1 Z2.0 F3000 ; Move Z Axis up little to prevent scratching of Heat Bed
G1 X5 Y20 Z0.3 F5000.0 ; Move over to prevent blob squish
G92 E0
G92 E0
G1 F2700 E-5
;LAYER_COUNT:357
;LAYER:0
M107
G0 F6000 X105.626 Y105.591 Z0.12
G0 X101.705 Y111.786
;TYPE:SKIRT
G1 F2700 E0
G1 F1200 X101.972 Y111.043 E0.01576
G1 X102.29 Y110.373 E0.03056
G1 X103.125 Y108.811 E0.0659
G1 X103.532 Y108.134 E0.08167
G1 X103.975 Y107.539 E0.09647
G1 X105.094 Y106.176 E0.13166
G1 X105.626 Y105.591 E0.14744
G1 X106.173 Y105.097 E0.16215
G1 X107.538 Y103.976 E0.1974
G1 X108.173 Y103.507 E0.21315
G1 X108.811 Y103.125 E0.22799
G1 X110.373 Y102.29 E0.26334
G1 X111.087 Y101.954 E0.27909
G1 X111.787 Y101.704 E0.29392
G1 X113.476 Y101.192 E0.32914
G1 X114.243 Y101.002 E0.34491
G1 X114.972 Y100.895 E0.35961
G1 X116.733 Y100.721 E0.39493
G1 X117.522 Y100.683 E0.41069
G1 X118.267 Y100.721 E0.42558
G1 X120.028 Y100.895 E0.46089
G1 X120.809 Y101.012 E0.47665
G1 X121.524 Y101.192 E0.49136
G1 X123.213 Y101.704 E0.52658
G1 X123.956 Y101.971 E0.54234
G1 X124.627 Y102.29 E0.55717
G1 X126.189 Y103.125 E0.59251
G1 X126.866 Y103.532 E0.60828
G1 X127.461 Y103.975 E0.62308
G1 X128.824 Y105.094 E0.65827
G1 X129.409 Y105.626 E0.67405
G1 X129.903 Y106.173 E0.68876
G1 X131.024 Y107.538 E0.72401
G1 X131.493 Y108.173 E0.73976
G1 X131.875 Y108.811 E0.7546
G1 X132.71 Y110.373 E0.78995
G1 X133.046 Y111.087 E0.8057
G1 X133.295 Y111.786 E0.8205
G1 X133.807 Y113.474 E0.8557
G1 X133.998 Y114.24 E0.87146
G1 X134.105 Y114.971 E0.8862
G1 X134.279 Y116.731 E0.9215
G1 X134.317 Y117.519 E0.93724
G1 X134.279 Y118.264 E0.95213
G1 X134.105 Y120.027 E0.98748
G1 X133.988 Y120.808 E1.00324
G1 X133.808 Y121.524 E1.01797
G1 X133.296 Y123.213 E1.05319
G1 X133.029 Y123.956 E1.06895
G1 X132.711 Y124.626 E1.08375
G1 X131.877 Y126.187 E1.11907
G1 X131.47 Y126.863 E1.13481
G1 X131.025 Y127.461 E1.14969
G1 X129.905 Y128.825 E1.18491
G1 X129.374 Y129.409 E1.20066
G1 X128.827 Y129.903 E1.21537
G1 X127.462 Y131.024 E1.25062
G1 X126.827 Y131.493 E1.26637
G1 X126.189 Y131.875 E1.28121
G1 X124.627 Y132.71 E1.31656
G1 X123.913 Y133.046 E1.33231
G1 X123.213 Y133.296 E1.34714
G1 X121.524 Y133.808 E1.38236
G1 X120.757 Y133.998 E1.39813
G1 X120.028 Y134.105 E1.41283
G1 X118.267 Y134.279 E1.44815
G1 X117.478 Y134.317 E1.46391
G1 X116.733 Y134.279 E1.4788
G1 X114.972 Y134.105 E1.51411
G1 X114.191 Y133.988 E1.52987
G1 X113.476 Y133.808 E1.54458
G1 X111.787 Y133.296 E1.5798
G1 X111.044 Y133.029 E1.59556
G1 X110.373 Y132.71 E1.61039
G1 X108.811 Y131.875 E1.64573
G1 X108.134 Y131.468 E1.6615
G1 X107.538 Y131.024 E1.67633
G1 X106.173 Y129.903 E1.71158
G1 X105.589 Y129.371 E1.72734
G1 X105.095 Y128.825 E1.74204
G1 X103.975 Y127.461 E1.77726
G1 X103.505 Y126.826 E1.79302
G1 X103.123 Y126.187 E1.80788
G1 X102.289 Y124.626 E1.8432
G1 X101.953 Y123.911 E1.85896
G1 X101.704 Y123.213 E1.87375
G1 X101.192 Y121.524 E1.90897
G1 X101.002 Y120.757 E1.92474
G1 X100.895 Y120.029 E1.93943
G1 X100.721 Y118.27 E1.9747
G1 X100.683 Y117.481 E1.99046
G1 X100.721 Y116.736 E2.00535
G1 X100.895 Y114.972 E2.04072
G1 X101.012 Y114.191 E2.05648
G1 X101.193 Y113.474 E2.07124
G1 X101.705 Y111.786 E2.10644
G1 F2700 E-2.89356
G0 F6000 X101.883 Y117.426
G1 F2700 E2.10644
G1 F1200 X101.915 Y116.854 E2.11787
G1 X102.089 Y115.09 E2.15325
G1 X102.2 Y114.372 E2.16775
G1 X102.341 Y113.822 E2.17908
G1 X102.853 Y112.134 E2.21428
G1 X103.102 Y111.452 E2.22877
G1 X103.348 Y110.939 E2.24012
G1 X104.183 Y109.377 E2.27547
G1 X104.561 Y108.756 E2.28997
G1 X104.903 Y108.3 E2.30135
G1 X106.022 Y106.937 E2.33654
G1 X106.513 Y106.402 E2.35103
G1 X106.934 Y106.025 E2.36231
G1 X108.299 Y104.904 E2.39756
G1 X108.885 Y104.474 E2.41207
G1 X109.377 Y104.183 E2.42347
G1 X110.939 Y103.348 E2.45882
G1 X111.597 Y103.042 E2.4733
G1 X112.135 Y102.853 E2.48468
G1 X113.824 Y102.341 E2.5199
G1 X114.53 Y102.169 E2.5344
G1 X115.09 Y102.089 E2.54569
G1 X116.851 Y101.915 E2.581
G1 X117.577 Y101.883 E2.59551
G1 X118.149 Y101.915 E2.60694
G1 X119.91 Y102.089 E2.64225
G1 X120.628 Y102.2 E2.65675
G1 X121.176 Y102.341 E2.66804
G1 X122.865 Y102.853 E2.70326
G1 X123.547 Y103.101 E2.71775
G1 X124.061 Y103.348 E2.72913
G1 X125.623 Y104.183 E2.76447
G1 X126.244 Y104.561 E2.77898
G1 X126.7 Y104.903 E2.79035
G1 X128.063 Y106.022 E2.82555
G1 X128.598 Y106.513 E2.84004
G1 X128.975 Y106.934 E2.85132
G1 X130.096 Y108.299 E2.88656
G1 X130.526 Y108.885 E2.90107
G1 X130.817 Y109.377 E2.91248
G1 X131.652 Y110.939 E2.94782
G1 X131.958 Y111.597 E2.9623
G1 X132.147 Y112.134 E2.97366
G1 X132.659 Y113.822 E3.00887
G1 X132.831 Y114.528 E3.02337
G1 X132.911 Y115.089 E3.03468
G1 X133.085 Y116.849 E3.06997
G1 X133.117 Y117.574 E3.08445
G1 X133.085 Y118.146 E3.09588
G1 X132.911 Y119.909 E3.13124
G1 X132.8 Y120.627 E3.14574
G1 X132.659 Y121.176 E3.15705
G1 X132.147 Y122.865 E3.19227
G1 X131.899 Y123.547 E3.20675
G1 X131.652 Y124.06 E3.21811
G1 X130.818 Y125.621 E3.25343
G1 X130.441 Y126.242 E3.26793
G1 X130.098 Y126.699 E3.27933
G1 X128.978 Y128.063 E3.31455
G1 X128.487 Y128.598 E3.32904
G1 X128.066 Y128.975 E3.34032
G1 X126.701 Y130.096 E3.37557
G1 X126.115 Y130.526 E3.39008
G1 X125.623 Y130.817 E3.40148
G1 X124.061 Y131.652 E3.43683
G1 X123.403 Y131.958 E3.45131
G1 X122.865 Y132.147 E3.46269
G1 X121.176 Y132.659 E3.49791
G1 X120.47 Y132.831 E3.51241
G1 X119.91 Y132.911 E3.5237
G1 X118.149 Y133.085 E3.55901
G1 X117.423 Y133.117 E3.57352
G1 X116.851 Y133.085 E3.58495
G1 X115.09 Y132.911 E3.62026
G1 X114.372 Y132.8 E3.63476
G1 X113.824 Y132.659 E3.64605
G1 X112.135 Y132.147 E3.68127
G1 X111.453 Y131.899 E3.69576
G1 X110.939 Y131.652 E3.70714
G1 X109.377 Y130.817 E3.74248
G1 X108.756 Y130.439 E3.75699
G1 X108.299 Y130.096 E3.76839
G1 X106.934 Y128.975 E3.80364
G1 X106.399 Y128.484 E3.81813
G1 X106.022 Y128.063 E3.82941
G1 X104.902 Y126.699 E3.86463
G1 X104.473 Y126.113 E3.87912
G1 X104.182 Y125.621 E3.89053
G1 X103.348 Y124.06 E3.92585
G1 X103.041 Y123.402 E3.94034
G1 X102.853 Y122.865 E3.95169
G1 X102.341 Y121.176 E3.98691
G1 X102.169 Y120.47 E4.00142
G1 X102.089 Y119.911 E4.01269
G1 X101.915 Y118.152 E4.04796
G1 X101.883 Y117.426 E4.06246
G0 F6000 X101.483 Y117.444
G1 F1200 X101.517 Y116.815 E4.07503
G1 X101.691 Y115.051 E4.11041
G1 X101.804 Y114.311 E4.12534
G1 X101.958 Y113.706 E4.1378
G1 X102.47 Y112.018 E4.173
G1 X102.725 Y111.315 E4.18793
G1 X102.996 Y110.75 E4.20043
G1 X103.831 Y109.188 E4.23578
G1 X104.218 Y108.548 E4.2507
G1 X104.594 Y108.046 E4.26322
G1 X105.713 Y106.683 E4.29841
G1 X106.218 Y106.131 E4.31334
G1 X106.68 Y105.715 E4.32575
G1 X108.045 Y104.594 E4.361
G1 X108.648 Y104.151 E4.37593
G1 X109.188 Y103.831 E4.38846
G1 X110.75 Y102.996 E4.4238
G1 X111.428 Y102.679 E4.43874
G1 X112.019 Y102.47 E4.45125
G1 X113.708 Y101.958 E4.48647
G1 X114.435 Y101.78 E4.5014
G1 X115.051 Y101.691 E4.51383
G1 X116.812 Y101.517 E4.54914
G1 X117.559 Y101.483 E4.56406
G1 X118.188 Y101.517 E4.57663
G1 X119.949 Y101.691 E4.61195
G1 X120.689 Y101.804 E4.62689
G1 X121.292 Y101.958 E4.6393
G1 X122.981 Y102.47 E4.67453
G1 X123.684 Y102.725 E4.68945
G1 X124.25 Y102.996 E4.70197
G1 X125.812 Y103.831 E4.73732
G1 X126.452 Y104.218 E4.75224
G1 X126.954 Y104.594 E4.76476
G1 X128.317 Y105.713 E4.79995
G1 X128.869 Y106.218 E4.81488
G1 X129.285 Y106.68 E4.82729
G1 X130.406 Y108.045 E4.86254
G1 X130.849 Y108.648 E4.87747
G1 X131.169 Y109.188 E4.89
G1 X132.004 Y110.75 E4.92534
G1 X132.321 Y111.428 E4.94028
G1 X132.53 Y112.018 E4.95277
G1 X133.042 Y113.706 E4.98797
G1 X133.22 Y114.433 E5.00291
G1 X133.309 Y115.049 E5.01533
G1 X133.483 Y116.809 E5.05062
G1 X133.517 Y117.557 E5.06556
G1 X133.483 Y118.186 E5.07813
G1 X133.309 Y119.949 E5.11349
G1 X133.196 Y120.688 E5.12841
G1 X133.042 Y121.292 E5.14085
G1 X132.53 Y122.981 E5.17607
G1 X132.275 Y123.684 E5.19099
G1 X132.005 Y124.249 E5.20349
G1 X131.171 Y125.81 E5.2388
G1 X130.784 Y126.45 E5.25373
G1 X130.407 Y126.953 E5.26627
G1 X129.287 Y128.317 E5.3015
G1 X128.782 Y128.869 E5.31643
G1 X128.32 Y129.285 E5.32883
G1 X126.955 Y130.406 E5.36408
G1 X126.352 Y130.849 E5.37901
G1 X125.812 Y131.169 E5.39154
G1 X124.25 Y132.004 E5.42688
G1 X123.572 Y132.321 E5.44182
G1 X122.981 Y132.53 E5.45433
G1 X121.292 Y133.042 E5.48955
G1 X120.565 Y133.22 E5.50449
G1 X119.949 Y133.309 E5.51691
G1 X118.188 Y133.483 E5.55222
G1 X117.441 Y133.517 E5.56714
G1 X116.812 Y133.483 E5.57972
G1 X115.051 Y133.309 E5.61503
G1 X114.311 Y133.196 E5.62997
G1 X113.708 Y133.042 E5.64239
G1 X112.019 Y132.53 E5.67761
G1 X111.316 Y132.275 E5.69253
G1 X110.75 Y132.004 E5.70505
G1 X109.188 Y131.169 E5.7404
G1 X108.548 Y130.782 E5.75533
G1 X108.045 Y130.406 E5.76786
G1 X106.68 Y129.285 E5.80311
G1 X106.129 Y128.78 E5.81802
G1 X105.713 Y128.317 E5.83044
G1 X104.593 Y126.953 E5.86566
G1 X104.15 Y126.35 E5.8806
G1 X103.829 Y125.81 E5.89313
G1 X102.995 Y124.249 E5.92845
G1 X102.678 Y123.571 E5.94339
G1 X102.47 Y122.981 E5.95587
G1 X101.958 Y121.292 E5.99109
G1 X101.78 Y120.565 E6.00603
G1 X101.691 Y119.95 E6.01843
G1 X101.517 Y118.191 E6.0537
G1 X101.483 Y117.444 E6.06863
G0 F6000 X101.083 Y117.462
G1 F1200 X101.119 Y116.776 E6.08233
G1 X101.293 Y115.012 E6.11771
G1 X101.408 Y114.251 E6.13307
G1 X101.576 Y113.59 E6.14668
G1 X102.088 Y111.902 E6.18188
G1 X102.349 Y111.179 E6.19722
G1 X102.643 Y110.561 E6.21088
G1 X103.478 Y108.999 E6.24622
G1 X103.875 Y108.341 E6.26156
G1 X104.285 Y107.792 E6.27523
G1 X105.404 Y106.429 E6.31042
G1 X105.922 Y105.861 E6.32577
G1 X106.427 Y105.406 E6.33933
G1 X107.792 Y104.285 E6.37458
G1 X108.411 Y103.829 E6.38992
G1 X108.999 Y103.478 E6.40359
G1 X110.561 Y102.643 E6.43893
G1 X111.258 Y102.316 E6.4543
G1 X111.903 Y102.087 E6.46796
G1 X113.592 Y101.575 E6.50318
G1 X114.339 Y101.391 E6.51853
G1 X115.011 Y101.293 E6.53208
G1 X116.772 Y101.119 E6.5674
G1 X117.541 Y101.083 E6.58276
G1 X118.228 Y101.119 E6.59649
G1 X119.989 Y101.293 E6.6318
G1 X120.749 Y101.408 E6.64714
G1 X121.408 Y101.575 E6.66071
G1 X123.097 Y102.087 E6.69593
G1 X123.82 Y102.348 E6.71127
G1 X124.439 Y102.643 E6.72495
G1 X126.001 Y103.478 E6.7603
G1 X126.659 Y103.875 E6.77563
G1 X127.208 Y104.285 E6.78931
G1 X128.571 Y105.404 E6.8245
G1 X129.139 Y105.922 E6.83984
G1 X129.594 Y106.427 E6.8534
G1 X130.715 Y107.792 E6.88865
G1 X131.171 Y108.411 E6.904
G1 X131.522 Y108.999 E6.91766
G1 X132.357 Y110.561 E6.95301
G1 X132.684 Y111.258 E6.96837
G1 X132.912 Y111.902 E6.98201
G1 X133.424 Y113.59 E7.01721
G1 X133.609 Y114.337 E7.03256
G1 X133.707 Y115.01 E7.04614
G1 X133.881 Y116.77 E7.08143
G1 X133.917 Y117.538 E7.09677
G1 X133.881 Y118.225 E7.1105
G1 X133.707 Y119.988 E7.14586
G1 X133.592 Y120.748 E7.16119
G1 X133.425 Y121.408 E7.17478
G1 X132.913 Y123.097 E7.21
G1 X132.652 Y123.82 E7.22534
G1 X132.358 Y124.437 E7.23898
G1 X131.524 Y125.998 E7.2743
G1 X131.127 Y126.657 E7.28965
G1 X130.716 Y127.207 E7.30335
G1 X129.596 Y128.571 E7.33857
G1 X129.078 Y129.139 E7.35392
G1 X128.573 Y129.594 E7.36748
G1 X127.208 Y130.715 E7.40273
G1 X126.589 Y131.171 E7.41807
G1 X126.001 Y131.522 E7.43174
G1 X124.439 Y132.357 E7.46708
G1 X123.742 Y132.684 E7.48245
G1 X123.097 Y132.913 E7.49611
G1 X121.408 Y133.425 E7.53133
G1 X120.661 Y133.609 E7.54668
G1 X119.989 Y133.707 E7.56023
G1 X118.228 Y133.881 E7.59555
G1 X117.459 Y133.917 E7.61091
G1 X116.772 Y133.881 E7.62464
G1 X115.011 Y133.707 E7.65995
G1 X114.251 Y133.592 E7.67529
G1 X113.592 Y133.425 E7.68886
G1 X111.903 Y132.913 E7.72408
G1 X111.18 Y132.652 E7.73942
G1 X110.561 Y132.357 E7.7531
G1 X108.999 Y131.522 E7.78845
G1 X108.341 Y131.125 E7.80378
G1 X107.792 Y130.715 E7.81746
G1 X106.427 Y129.594 E7.85271
G1 X105.858 Y129.075 E7.86807
G1 X105.404 Y128.571 E7.88161
G1 X104.284 Y127.207 E7.91683
G1 X103.827 Y126.588 E7.93219
G1 X103.476 Y125.998 E7.94589
G1 X102.642 Y124.437 E7.98121
G1 X102.315 Y123.741 E7.99655
G1 X102.087 Y123.097 E8.01019
G1 X101.575 Y121.408 E8.04541
G1 X101.391 Y120.661 E8.06076
G1 X101.293 Y119.989 E8.07431
G1 X101.119 Y118.23 E8.10958
G1 X101.083 Y117.462 E8.12493
G0 F6000 X102.284 Y117.409
G1 F1200 X102.313 Y116.893 E8.13524
G1 X102.487 Y115.129 E8.17061
G1 X102.596 Y114.434 E8.18465
G1 X102.724 Y113.938 E8.19488
G1 X103.236 Y112.25 E8.23008
G1 X103.478 Y111.589 E8.24413
G1 X103.701 Y111.127 E8.25436
G1 X104.536 Y109.565 E8.28971
G1 X104.903 Y108.964 E8.30376
G1 X105.212 Y108.554 E8.31401
G1 X106.331 Y107.191 E8.3492
G1 X106.808 Y106.673 E8.36325
G1 X107.188 Y106.334 E8.37341
G1 X108.553 Y105.213 E8.40866
G1 X109.122 Y104.797 E8.42273
G1 X109.565 Y104.536 E8.43299
G1 X111.127 Y103.701 E8.46834
G1 X111.766 Y103.405 E8.48239
G1 X112.251 Y103.236 E8.49264
G1 X113.94 Y102.724 E8.52786
G1 X114.625 Y102.558 E8.54192
G1 X115.129 Y102.487 E8.55208
G1 X116.89 Y102.313 E8.5874
G1 X117.594 Y102.284 E8.60146
G1 X118.11 Y102.313 E8.61177
G1 X119.871 Y102.487 E8.64708
G1 X120.566 Y102.596 E8.66112
G1 X121.06 Y102.724 E8.67131
G1 X122.749 Y103.236 E8.70653
G1 X123.41 Y103.478 E8.72057
G1 X123.873 Y103.701 E8.73083
G1 X125.435 Y104.536 E8.76618
G1 X126.036 Y104.903 E8.78023
G1 X126.446 Y105.212 E8.79047
G1 X127.809 Y106.331 E8.82567
G1 X128.327 Y106.808 E8.83972
G1 X128.666 Y107.188 E8.84988
G1 X129.787 Y108.553 E8.88513
G1 X130.203 Y109.122 E8.8992
G1 X130.464 Y109.565 E8.90946
G1 X131.299 Y111.127 E8.9448
G1 X131.595 Y111.766 E8.95886
G1 X131.764 Y112.25 E8.96909
G1 X132.276 Y113.938 E9.00429
G1 X132.442 Y114.623 E9.01835
G1 X132.513 Y115.128 E9.02853
G1 X132.687 Y116.888 E9.06382
G1 X132.716 Y117.591 E9.07787
G1 X132.687 Y118.107 E9.08818
G1 X132.513 Y119.87 E9.12353
G1 X132.404 Y120.565 E9.13757
G1 X132.276 Y121.06 E9.14778
G1 X131.764 Y122.749 E9.183
G1 X131.522 Y123.41 E9.19704
G1 X131.299 Y123.872 E9.20728
G1 X130.465 Y125.433 E9.2426
G1 X130.099 Y126.034 E9.25664
G1 X129.789 Y126.445 E9.26692
G1 X128.669 Y127.809 E9.30214
G1 X128.192 Y128.327 E9.31619
G1 X127.812 Y128.666 E9.32635
G1 X126.447 Y129.787 E9.3616
G1 X125.878 Y130.203 E9.37567
G1 X125.435 Y130.464 E9.38593
G1 X123.873 Y131.299 E9.42127
G1 X123.234 Y131.595 E9.43533
G1 X122.749 Y131.764 E9.44558
G1 X121.06 Y132.276 E9.4808
G1 X120.375 Y132.442 E9.49486
G1 X119.871 Y132.513 E9.50502
G1 X118.11 Y132.687 E9.54033
G1 X117.406 Y132.716 E9.55439
G1 X116.89 Y132.687 E9.56471
G1 X115.129 Y132.513 E9.60002
G1 X114.434 Y132.404 E9.61406
G1 X113.94 Y132.276 E9.62424
G1 X112.251 Y131.764 E9.65946
G1 X111.59 Y131.522 E9.67351
G1 X111.127 Y131.299 E9.68377
G1 X109.565 Y130.464 E9.71911
G1 X108.964 Y130.097 E9.73317
G1 X108.553 Y129.787 E9.74344
G1 X107.188 Y128.666 E9.77869
G1 X106.67 Y128.189 E9.79274
G1 X106.331 Y127.809 E9.8029
G1 X105.211 Y126.445 E9.83812
G1 X104.796 Y125.877 E9.85216
G1 X104.535 Y125.433 E9.86244
G1 X103.701 Y123.872 E9.89776
G1 X103.405 Y123.233 E9.91181
G1 X103.236 Y122.749 E9.92204
G1 X102.724 Y121.06 E9.95726
G1 X102.558 Y120.375 E9.97133
G1 X102.487 Y119.871 E9.98149
G1 X102.313 Y118.112 E10.01676
G1 X102.284 Y117.409 E10.0308
G0 F6000 X102.684 Y117.393
G1 F1200 X102.711 Y116.933 E10.04
G1 X102.885 Y115.169 E10.07537
G1 X102.992 Y114.496 E10.08897
G1 X103.107 Y114.054 E10.09808
G1 X103.619 Y112.366 E10.13328
G1 X103.854 Y111.728 E10.14685
G1 X104.054 Y111.316 E10.15599
G1 X104.889 Y109.754 E10.19134
G1 X105.245 Y109.173 E10.20494
G1 X105.521 Y108.808 E10.21407
G1 X106.64 Y107.445 E10.24926
G1 X107.102 Y106.945 E10.26285
G1 X107.442 Y106.643 E10.27192
G1 X108.807 Y105.522 E10.30717
G1 X109.358 Y105.121 E10.32077
G1 X109.754 Y104.889 E10.32993
G1 X111.316 Y104.054 E10.36527
G1 X111.934 Y103.769 E10.37885
G1 X112.367 Y103.618 E10.38801
