;FLAVOR:Marlin
;TIME:3381
;Filament used: 0.864301m
;Layer height: 0.12
;MINX:79.593
;MINY:102.73
;MINZ:0.12
;MAXX:155.406
;MAXY:132.27
;MAXZ:30.48
;Generated with Cura_SteamEngine 5.0.0
M82 ;absolute extrusion mode
; Ender 3 Custom Start G-code
M140 S60 ; start preheating the bed
M104 S200 ?T0 ; start preheating hotend
G92 E0 ; Reset Extruder
G28 ; Home all axes
G29 ;
G1 Z2.0 F3000 ; Move Z Axis up little to prevent scratching of Heat Bed
G1 X0.1 Y20 Z0.3 F5000.0 ; Move to start position
G1 X0.1 Y200.0 Z0.3 F1500.0 E15 ; Draw the first line
G1 X0.4 Y200.0 Z0.3 F5000.0 ; Move to side a little
G1 X0.4 Y20 Z0.3 F1500.0 E30 ; Draw the second line
G92 E0 ; Reset Extruder
G1 Z2.0 F3000 ; Move Z Axis up little to prevent scratching of Heat Bed
G1 X5 Y20 Z0.3 F5000.0 ; Move over to prevent blob squish
G92 E0
G92 E0
G1 F2700 E-5
;LAYER_COUNT:255
;LAYER:0
M107
G0 F6000 X129.68 Y107.625 Z0.12
G0 X125.869 Y117.473
;TYPE:SKIRT
G1 F2700 E0
G1 F1200 X125.906 Y116.744 E0.01457
G1 X126.039 Y115.381 E0.0419
G1 X126.155 Y114.6 E0.05765
G1 X126.339 Y113.872 E0.07264
G1 X126.735 Y112.568 E0.09983
G1 X127.002 Y111.825 E0.11559
G1 X127.32 Y111.157 E0.13035
G1 X127.966 Y109.949 E0.15769
G1 X128.373 Y109.272 E0.17345
G1 X128.815 Y108.679 E0.18821
G1 X129.68 Y107.625 E0.21542
G1 X130.211 Y107.04 E0.23119
G1 X130.76 Y106.544 E0.24596
G1 X131.815 Y105.678 E0.27319
G1 X132.45 Y105.209 E0.28895
G1 X133.086 Y104.829 E0.30373
G1 X134.294 Y104.183 E0.33107
G1 X135.008 Y103.846 E0.34683
G1 X135.707 Y103.597 E0.36163
G1 X137.012 Y103.201 E0.38885
G1 X137.778 Y103.01 E0.4046
G1 X138.512 Y102.903 E0.41941
G1 X139.872 Y102.769 E0.44668
G1 X140.661 Y102.731 E0.46244
G1 X141.401 Y102.769 E0.47723
G1 X142.762 Y102.903 E0.50452
G1 X143.543 Y103.02 E0.52028
G1 X144.263 Y103.201 E0.5351
G1 X145.568 Y103.597 E0.56231
G1 X146.311 Y103.864 E0.57807
G1 X146.981 Y104.183 E0.59288
G1 X148.189 Y104.829 E0.62021
G1 X148.866 Y105.236 E0.63598
G1 X149.459 Y105.677 E0.65072
G1 X150.512 Y106.541 E0.67791
G1 X151.096 Y107.072 E0.69366
G1 X151.592 Y107.621 E0.70842
G1 X152.459 Y108.677 E0.73569
G1 X152.929 Y109.312 E0.75145
G1 X153.312 Y109.953 E0.76636
G1 X153.957 Y111.161 E0.79368
G1 X154.293 Y111.876 E0.80945
G1 X154.539 Y112.568 E0.82411
G1 X154.935 Y113.872 E0.8513
G1 X155.126 Y114.639 E0.86708
G1 X155.234 Y115.374 E0.8819
G1 X155.368 Y116.733 E0.90915
G1 X155.406 Y117.521 E0.9249
G1 X155.369 Y118.262 E0.9397
G1 X155.235 Y119.624 E0.96701
G1 X155.118 Y120.405 E0.98277
G1 X154.936 Y121.125 E0.99759
G1 X154.54 Y122.43 E1.02481
G1 X154.273 Y123.173 E1.04057
G1 X153.958 Y123.837 E1.05523
G1 X153.315 Y125.042 E1.08249
G1 X152.908 Y125.719 E1.09825
G1 X152.464 Y126.317 E1.11312
G1 X151.597 Y127.374 E1.1404
G1 X151.066 Y127.958 E1.15615
G1 X150.515 Y128.456 E1.17097
G1 X149.46 Y129.322 E1.19821
G1 X148.825 Y129.791 E1.21396
G1 X148.189 Y130.171 E1.22875
G1 X146.981 Y130.817 E1.25608
G1 X146.267 Y131.154 E1.27184
G1 X145.568 Y131.403 E1.28665
G1 X144.263 Y131.799 E1.31386
G1 X143.497 Y131.99 E1.32962
G1 X142.762 Y132.097 E1.34444
G1 X141.401 Y132.231 E1.37173
G1 X140.612 Y132.269 E1.3875
G1 X139.872 Y132.231 E1.40228
G1 X138.512 Y132.097 E1.42955
G1 X137.731 Y131.98 E1.44531
G1 X137.012 Y131.799 E1.46011
G1 X135.707 Y131.403 E1.48733
G1 X134.964 Y131.136 E1.50308
G1 X134.294 Y130.817 E1.51789
G1 X133.086 Y130.171 E1.54523
G1 X132.409 Y129.764 E1.56099
G1 X131.815 Y129.322 E1.57577
G1 X130.76 Y128.456 E1.603
G1 X130.176 Y127.925 E1.61876
G1 X129.681 Y127.377 E1.63349
G1 X128.814 Y126.321 E1.66076
G1 X128.344 Y125.686 E1.67653
G1 X127.962 Y125.045 E1.69142
G1 X127.318 Y123.839 E1.7187
G1 X126.981 Y123.125 E1.73446
G1 X126.734 Y122.43 E1.74918
G1 X126.338 Y121.125 E1.77639
G1 X126.147 Y120.359 E1.79214
G1 X126.039 Y119.62 E1.80705
G1 X125.906 Y118.262 E1.83428
G1 X125.869 Y117.473 E1.85004
G0 F6000 X126.269 Y117.455
G1 F1200 X126.304 Y116.783 E1.86347
G1 X126.437 Y115.42 E1.8908
G1 X126.551 Y114.66 E1.90614
G1 X126.721 Y113.989 E1.91995
G1 X127.117 Y112.685 E1.94715
G1 X127.379 Y111.961 E1.96251
G1 X127.672 Y111.345 E1.97612
G1 X128.318 Y110.137 E2.00346
G1 X128.716 Y109.479 E2.01881
G1 X129.124 Y108.932 E2.03243
G1 X129.989 Y107.878 E2.05964
G1 X130.507 Y107.31 E2.07498
G1 X131.014 Y106.853 E2.0886
G1 X132.069 Y105.987 E2.11584
G1 X132.688 Y105.531 E2.13118
G1 X133.274 Y105.181 E2.1448
G1 X134.482 Y104.535 E2.17214
G1 X135.179 Y104.209 E2.18749
G1 X135.823 Y103.98 E2.20113
G1 X137.128 Y103.584 E2.22835
G1 X137.875 Y103.399 E2.24371
G1 X138.551 Y103.301 E2.25734
G1 X139.911 Y103.167 E2.28461
G1 X140.68 Y103.131 E2.29997
G1 X141.362 Y103.167 E2.3136
G1 X142.723 Y103.301 E2.34089
G1 X143.484 Y103.416 E2.35625
G1 X144.147 Y103.584 E2.3699
G1 X145.452 Y103.98 E2.39712
G1 X146.175 Y104.241 E2.41246
G1 X146.793 Y104.535 E2.42611
G1 X148.001 Y105.181 E2.45345
G1 X148.659 Y105.579 E2.4688
G1 X149.205 Y105.986 E2.48239
G1 X150.258 Y106.85 E2.50957
G1 X150.826 Y107.368 E2.52491
G1 X151.283 Y107.875 E2.53853
G1 X152.15 Y108.931 E2.5658
G1 X152.607 Y109.55 E2.58115
G1 X152.959 Y110.142 E2.5949
G1 X153.604 Y111.35 E2.62223
G1 X153.93 Y112.046 E2.63756
G1 X154.157 Y112.685 E2.6511
G1 X154.553 Y113.989 E2.67829
G1 X154.738 Y114.735 E2.69363
G1 X154.836 Y115.413 E2.7073
G1 X154.97 Y116.772 E2.73455
G1 X155.006 Y117.54 E2.7499
G1 X154.97 Y118.223 E2.76354
G1 X154.836 Y119.585 E2.79086
G1 X154.721 Y120.345 E2.8062
G1 X154.553 Y121.009 E2.81986
G1 X154.157 Y122.314 E2.84708
G1 X153.896 Y123.037 E2.86242
G1 X153.605 Y123.649 E2.87594
G1 X152.962 Y124.854 E2.9032
G1 X152.565 Y125.513 E2.91855
G1 X152.154 Y126.063 E2.93225
G1 X151.287 Y127.12 E2.95954
G1 X150.769 Y127.689 E2.97489
G1 X150.261 Y128.147 E2.98854
G1 X149.206 Y129.013 E3.01578
G1 X148.587 Y129.469 E3.03112
G1 X148.001 Y129.819 E3.04474
G1 X146.793 Y130.465 E3.07208
G1 X146.096 Y130.791 E3.08744
G1 X145.452 Y131.02 E3.10108
G1 X144.147 Y131.416 E3.12829
G1 X143.4 Y131.601 E3.14365
G1 X142.723 Y131.699 E3.1573
G1 X141.362 Y131.833 E3.18459
G1 X140.594 Y131.869 E3.19993
G1 X139.911 Y131.833 E3.21358
G1 X138.551 Y131.699 E3.24086
G1 X137.791 Y131.584 E3.25619
G1 X137.128 Y131.416 E3.26984
G1 X135.823 Y131.02 E3.29706
G1 X135.1 Y130.759 E3.3124
G1 X134.482 Y130.465 E3.32606
G1 X133.274 Y129.819 E3.35339
G1 X132.616 Y129.421 E3.36874
G1 X132.069 Y129.013 E3.38236
G1 X131.014 Y128.147 E3.4096
G1 X130.446 Y127.629 E3.42494
G1 X129.99 Y127.123 E3.43853
G1 X129.123 Y126.067 E3.4658
G1 X128.666 Y125.448 E3.48115
G1 X128.314 Y124.857 E3.49488
G1 X127.67 Y123.651 E3.52216
G1 X127.344 Y122.954 E3.53752
G1 X127.117 Y122.314 E3.55107
G1 X126.721 Y121.009 E3.57828
G1 X126.536 Y120.262 E3.59364
G1 X126.437 Y119.581 E3.60737
G1 X126.304 Y118.223 E3.6346
G1 X126.269 Y117.455 E3.64995
G0 F6000 X126.669 Y117.437
G1 F1200 X126.702 Y116.822 E3.66224
G1 X126.835 Y115.459 E3.68957
G1 X126.947 Y114.72 E3.70448
G1 X127.104 Y114.105 E3.71715
G1 X127.5 Y112.801 E3.74435
G1 X127.755 Y112.098 E3.75927
G1 X128.025 Y111.534 E3.77175
G1 X128.671 Y110.326 E3.79909
G1 X129.059 Y109.686 E3.81402
G1 X129.433 Y109.186 E3.82648
G1 X130.298 Y108.132 E3.85369
G1 X130.803 Y107.58 E3.86862
G1 X131.268 Y107.162 E3.8811
G1 X132.323 Y106.296 E3.90834
G1 X132.925 Y105.853 E3.92325
G1 X133.463 Y105.534 E3.93574
G1 X134.671 Y104.888 E3.96307
G1 X135.349 Y104.571 E3.97801
G1 X135.939 Y104.363 E3.99049
G1 X137.244 Y103.967 E4.01771
G1 X137.971 Y103.788 E4.03265
G1 X138.591 Y103.699 E4.04515
G1 X139.951 Y103.565 E4.07242
G1 X140.698 Y103.531 E4.08734
G1 X141.323 Y103.565 E4.09983
G1 X142.684 Y103.699 E4.12713
G1 X143.423 Y103.812 E4.14205
G1 X144.031 Y103.967 E4.15457
G1 X145.336 Y104.363 E4.18178
G1 X146.039 Y104.618 E4.19671
G1 X146.604 Y104.888 E4.2092
G1 X147.812 Y105.534 E4.23654
G1 X148.452 Y105.922 E4.25148
G1 X148.951 Y106.295 E4.26391
G1 X150.004 Y107.159 E4.29109
G1 X150.556 Y107.664 E4.30602
G1 X150.974 Y108.129 E4.3185
G1 X151.841 Y109.185 E4.34576
G1 X152.284 Y109.788 E4.3607
G1 X152.606 Y110.33 E4.37328
G1 X153.251 Y111.538 E4.40061
G1 X153.567 Y112.216 E4.41553
G1 X153.774 Y112.801 E4.42792
G1 X154.17 Y114.105 E4.45511
G1 X154.349 Y114.831 E4.47003
G1 X154.438 Y115.452 E4.48255
G1 X154.572 Y116.811 E4.50981
G1 X154.606 Y117.558 E4.52473
G1 X154.572 Y118.183 E4.53722
G1 X154.438 Y119.545 E4.56453
G1 X154.325 Y120.285 E4.57947
G1 X154.17 Y120.893 E4.59199
G1 X153.774 Y122.198 E4.61921
G1 X153.519 Y122.901 E4.63413
G1 X153.252 Y123.46 E4.64649
G1 X152.609 Y124.665 E4.67375
G1 X152.222 Y125.306 E4.68869
G1 X151.845 Y125.809 E4.70124
G1 X150.978 Y126.866 E4.72852
G1 X150.474 Y127.419 E4.74345
G1 X150.007 Y127.838 E4.75597
G1 X148.952 Y128.704 E4.78321
G1 X148.35 Y129.147 E4.79812
G1 X147.812 Y129.466 E4.81061
G1 X146.604 Y130.112 E4.83794
G1 X145.926 Y130.429 E4.85288
G1 X145.336 Y130.637 E4.86536
G1 X144.031 Y131.033 E4.89258
G1 X143.304 Y131.212 E4.90752
G1 X142.684 Y131.301 E4.92002
G1 X141.323 Y131.435 E4.94731
G1 X140.576 Y131.469 E4.96223
G1 X139.951 Y131.435 E4.97472
G1 X138.591 Y131.301 E5.002
G1 X137.851 Y131.188 E5.01694
G1 X137.244 Y131.033 E5.02944
G1 X135.939 Y130.637 E5.05665
G1 X135.236 Y130.382 E5.07158
G1 X134.671 Y130.112 E5.08407
G1 X133.463 Y129.466 E5.11141
G1 X132.823 Y129.078 E5.12635
G1 X132.323 Y128.704 E5.13881
G1 X131.268 Y127.838 E5.16604
G1 X130.716 Y127.333 E5.18097
G1 X130.299 Y126.869 E5.19342
G1 X129.432 Y125.813 E5.22069
G1 X128.989 Y125.21 E5.23562
G1 X128.667 Y124.668 E5.2482
G1 X128.023 Y123.462 E5.27549
G1 X127.707 Y122.785 E5.2904
G1 X127.5 Y122.198 E5.30282
G1 X127.104 Y120.893 E5.33003
G1 X126.925 Y120.166 E5.34497
G1 X126.835 Y119.542 E5.35756
G1 X126.702 Y118.184 E5.38479
G1 X126.669 Y117.437 E5.39971
G0 F6000 X127.07 Y117.42
G1 F1200 X127.1 Y116.861 E5.41088
G1 X127.233 Y115.498 E5.43821
G1 X127.343 Y114.78 E5.4527
G1 X127.487 Y114.221 E5.46422
G1 X127.883 Y112.917 E5.49142
G1 X128.132 Y112.235 E5.50591
G1 X128.378 Y111.723 E5.51724
G1 X129.024 Y110.515 E5.54458
G1 X129.401 Y109.894 E5.55908
G1 X129.742 Y109.44 E5.57041
G1 X130.607 Y108.386 E5.59762
G1 X131.098 Y107.851 E5.61211
G1 X131.521 Y107.472 E5.62345
G1 X132.576 Y106.606 E5.65068
G1 X133.162 Y106.176 E5.66519
G1 X133.652 Y105.887 E5.67654
G1 X134.86 Y105.241 E5.70388
G1 X135.518 Y104.934 E5.71837
G1 X136.056 Y104.745 E5.72975
G1 X137.361 Y104.349 E5.75696
G1 X138.066 Y104.177 E5.77145
G1 X138.63 Y104.097 E5.78281
G1 X139.99 Y103.963 E5.81009
G1 X140.716 Y103.931 E5.82459
G1 X141.284 Y103.963 E5.83594
G1 X142.645 Y104.097 E5.86323
G1 X143.363 Y104.208 E5.87773
G1 X143.914 Y104.349 E5.88908
G1 X145.219 Y104.745 E5.9163
G1 X145.902 Y104.994 E5.9308
G1 X146.415 Y105.241 E5.94217
G1 X147.623 Y105.887 E5.9695
G1 X148.244 Y106.264 E5.984
G1 X148.697 Y106.605 E5.99532
G1 X149.75 Y107.469 E6.0225
G1 X150.286 Y107.96 E6.037
G1 X150.665 Y108.383 E6.04834
G1 X151.532 Y109.439 E6.07561
G1 X151.961 Y110.025 E6.0901
G1 X152.253 Y110.518 E6.10153
G1 X152.898 Y111.726 E6.12886
G1 X153.204 Y112.385 E6.14336
G1 X153.391 Y112.917 E6.15461
G1 X153.787 Y114.221 E6.18181
G1 X153.96 Y114.927 E6.19632
G1 X154.04 Y115.491 E6.20768
G1 X154.174 Y116.85 E6.23494
G1 X154.206 Y117.576 E6.24944
G1 X154.174 Y118.144 E6.26079
G1 X154.04 Y119.506 E6.2881
G1 X153.929 Y120.224 E6.3026
G1 X153.788 Y120.776 E6.31397
G1 X153.392 Y122.081 E6.34119
G1 X153.143 Y122.764 E6.35569
G1 X152.899 Y123.272 E6.36694
G1 X152.256 Y124.477 E6.3942
G1 X151.879 Y125.098 E6.40869
G1 X151.536 Y125.556 E6.42011
G1 X150.669 Y126.613 E6.44739
G1 X150.178 Y127.148 E6.46189
G1 X149.754 Y127.528 E6.47325
G1 X148.699 Y128.394 E6.50049
G1 X148.113 Y128.824 E6.51499
G1 X147.623 Y129.113 E6.52634
G1 X146.415 Y129.759 E6.55368
G1 X145.757 Y130.066 E6.56817
G1 X145.219 Y130.255 E6.57955
G1 X143.914 Y130.651 E6.60677
G1 X143.209 Y130.823 E6.62125
G1 X142.645 Y130.903 E6.63262
G1 X141.284 Y131.037 E6.65991
G1 X140.558 Y131.069 E6.67441
G1 X139.99 Y131.037 E6.68576
G1 X138.63 Y130.903 E6.71303
G1 X137.912 Y130.792 E6.72753
G1 X137.361 Y130.651 E6.73888
G1 X136.056 Y130.255 E6.7661
G1 X135.373 Y130.006 E6.78061
G1 X134.86 Y129.759 E6.79197
G1 X133.652 Y129.113 E6.81931
G1 X133.031 Y128.736 E6.8338
G1 X132.576 Y128.394 E6.84516
G1 X131.521 Y127.528 E6.8724
G1 X130.986 Y127.037 E6.88689
G1 X130.608 Y126.615 E6.8982
G1 X129.741 Y125.559 E6.92546
G1 X129.312 Y124.973 E6.93996
G1 X129.02 Y124.48 E6.95139
G1 X128.376 Y123.274 E6.97868
G1 X128.07 Y122.615 E6.99317
G1 X127.882 Y122.081 E7.00447
G1 X127.486 Y120.776 E7.03169
G1 X127.314 Y120.071 E7.04617
G1 X127.233 Y119.503 E7.05762
G1 X127.1 Y118.145 E7.08485
G1 X127.07 Y117.42 E7.09933
G0 F6000 X127.47 Y117.403
G1 F1200 X127.498 Y116.9 E7.10938
G1 X127.631 Y115.537 E7.13671
G1 X127.739 Y114.841 E7.15077
G1 X127.87 Y114.337 E7.16116
G1 X128.266 Y113.033 E7.18836
G1 X128.508 Y112.373 E7.20238
G1 X128.731 Y111.911 E7.21262
G1 X129.377 Y110.703 E7.23996
G1 X129.743 Y110.102 E7.254
G1 X130.051 Y109.694 E7.2642
G1 X130.916 Y108.64 E7.29141
G1 X131.393 Y108.122 E7.30547
G1 X131.775 Y107.781 E7.31569
G1 X132.83 Y106.915 E7.34292
G1 X133.399 Y106.5 E7.35698
G1 X133.84 Y106.24 E7.36719
G1 X135.048 Y105.594 E7.39453
G1 X135.687 Y105.297 E7.40859
G1 X136.172 Y105.128 E7.41884
G1 X137.477 Y104.732 E7.44606
G1 X138.161 Y104.566 E7.4601
G1 X138.669 Y104.495 E7.47034
G1 X140.029 Y104.361 E7.49761
G1 X140.732 Y104.332 E7.51165
G1 X141.244 Y104.361 E7.52189
G1 X142.605 Y104.495 E7.54918
G1 X143.301 Y104.603 E7.56323
G1 X143.798 Y104.732 E7.57348
G1 X145.103 Y105.128 E7.6007
G1 X145.764 Y105.37 E7.61474
G1 X146.227 Y105.594 E7.62501
G1 X147.435 Y106.24 E7.65235
G1 X148.036 Y106.606 E7.66639
G1 X148.444 Y106.914 E7.67659
G1 X149.497 Y107.778 E7.70377
G1 X150.015 Y108.255 E7.71782
G1 X150.356 Y108.637 E7.72804
G1 X151.223 Y109.693 E7.75531
G1 X151.638 Y110.261 E7.76935
G1 X151.9 Y110.707 E7.77967
G1 X152.545 Y111.915 E7.807
G1 X152.841 Y112.554 E7.82105
G1 X153.008 Y113.033 E7.83118
G1 X153.404 Y114.337 E7.85837
G1 X153.57 Y115.022 E7.87244
G1 X153.642 Y115.531 E7.8827
G1 X153.776 Y116.89 E7.90995
G1 X153.805 Y117.593 E7.92399
G1 X153.776 Y118.105 E7.93422
G1 X153.642 Y119.467 E7.96153
G1 X153.534 Y120.163 E7.97559
G1 X153.405 Y120.66 E7.98584
G1 X153.009 Y121.965 E8.01305
G1 X152.767 Y122.626 E8.0271
G1 X152.546 Y123.084 E8.03725
G1 X151.903 Y124.289 E8.0645
G1 X151.537 Y124.89 E8.07855
G1 X151.227 Y125.302 E8.08884
G1 X150.36 Y126.359 E8.11612
G1 X149.883 Y126.877 E8.13017
G1 X149.5 Y127.219 E8.14042
G1 X148.445 Y128.085 E8.16766
G1 X147.876 Y128.5 E8.18171
G1 X147.435 Y128.76 E8.19193
G1 X146.227 Y129.406 E8.21926
G1 X145.588 Y129.703 E8.23333
G1 X145.103 Y129.872 E8.24357
G1 X143.798 Y130.268 E8.27079
G1 X143.114 Y130.434 E8.28484
G1 X142.605 Y130.505 E8.29509
G1 X141.244 Y130.639 E8.32238
G1 X140.541 Y130.668 E8.33643
G1 X140.029 Y130.639 E8.34666
G1 X138.669 Y130.505 E8.37393
G1 X137.974 Y130.396 E8.38797
G1 X137.477 Y130.268 E8.39821
G1 X136.172 Y129.872 E8.42543
G1 X135.511 Y129.63 E8.43947
G1 X135.048 Y129.406 E8.44974
G1 X133.84 Y128.76 E8.47708
G1 X133.239 Y128.394 E8.49112
G1 X132.83 Y128.085 E8.50135
G1 X131.775 Y127.219 E8.52859
G1 X131.257 Y126.742 E8.54264
G1 X130.917 Y126.361 E8.55283
G1 X130.05 Y125.305 E8.5801
G1 X129.635 Y124.737 E8.59413
G1 X129.373 Y124.291 E8.60446
G1 X128.729 Y123.085 E8.63174
G1 X128.433 Y122.447 E8.64578
G1 X128.265 Y121.965 E8.65596
G1 X127.869 Y120.66 E8.68318
G1 X127.703 Y119.976 E8.69722
G1 X127.632 Y119.464 E8.70754
G1 X127.499 Y118.106 E8.73477
G1 X127.47 Y117.403 E8.74881
G0 F6000 X127.87 Y117.387
G1 F1200 X127.896 Y116.939 E8.75776
G1 X128.029 Y115.576 E8.78509
G1 X128.135 Y114.903 E8.79869
G1 X128.252 Y114.454 E8.80795
G1 X128.648 Y113.15 E8.83515
G1 X128.884 Y112.511 E8.84874
G1 X129.083 Y112.1 E8.85785
G1 X129.729 Y110.892 E8.88519
G1 X130.085 Y110.311 E8.89879
G1 X130.361 Y109.948 E8.90789
G1 X131.226 Y108.894 E8.9351
G1 X131.688 Y108.393 E8.9487
G1 X132.029 Y108.09 E8.9578
G1 X133.084 Y107.224 E8.98504
G1 X133.635 Y106.824 E8.99863
G1 X134.029 Y106.592 E9.00775
G1 X135.237 Y105.946 E9.03509
G1 X135.855 Y105.661 E9.04867
G1 X136.288 Y105.511 E9.05782
G1 X137.593 Y105.115 E9.08503
G1 X138.255 Y104.956 E9.09862
G1 X138.708 Y104.893 E9.10774
