;FLAVOR:Marlin
;TIME:1745
;Filament used: 0.740743m
;Layer height: 0.2
;MINX:100.515
;MINY:100.515
;MINZ:0.2
;MAXX:134.485
;MAXY:134.485
;MAXZ:40.8
;Generated with Cura_SteamEngine 5.0.0
M82 ;absolute extrusion mode
; Ender 3 Custom Start G-code
M140 S60 ; start preheating the bed
M104 S200 ?T0 ; start preheating hotend
G92 E0 ; Reset Extruder
G28 ; Home all axes
G29 ;
G1 Z2.0 F3000 ; Move Z Axis up little to prevent scratching of Heat Bed
G1 X0.1 Y20 Z0.3 F5000.0 ; Move to start position
G1 X0.1 Y200.0 Z0.3 F1500.0 E15 ; Draw the first line
G1 X0.4 Y200.0 Z0.3 F5000.0 ; Move to side a little
G1 X0.4 Y20 Z0.3 F1500.0 E30 ; Draw the second line
G92 E0 ; Reset Extruder
G1 Z2.0 F3000 ; Move Z Axis up little to prevent scratching of Heat Bed
G1 X5 Y20 Z0.3 F5000.0 ; Move over to prevent blob squish
G92 E0
G92 E0
G1 F2700 E-5
;LAYER_COUNT:205
;LAYER:0
M107
G0 F6000 X105.505 Y105.472 Z0.2
G0 X101.549 Y111.72
;TYPE:SKIRT
G1 F2700 E0
G1 F1200 X101.816 Y110.977 E0.02626
G1 X102.133 Y110.309 E0.05085
G1 X102.983 Y108.718 E0.11085
G1 X103.39 Y108.042 E0.13709
G1 X103.834 Y107.446 E0.16181
G1 X104.974 Y106.057 E0.22158
G1 X105.505 Y105.472 E0.24785
G1 X106.054 Y104.976 E0.27246
G1 X107.445 Y103.834 E0.33232
G1 X108.08 Y103.365 E0.35858
G1 X108.718 Y102.983 E0.38331
G1 X110.309 Y102.133 E0.44331
G1 X111.024 Y101.797 E0.46958
G1 X111.721 Y101.549 E0.49419
G1 X113.442 Y101.027 E0.554
G1 X114.208 Y100.836 E0.58026
G1 X114.944 Y100.728 E0.605
G1 X116.738 Y100.552 E0.66496
G1 X117.527 Y100.515 E0.69123
G1 X118.262 Y100.552 E0.71571
G1 X120.056 Y100.728 E0.77566
G1 X120.837 Y100.845 E0.80193
G1 X121.558 Y101.027 E0.82666
G1 X123.279 Y101.549 E0.88648
G1 X124.022 Y101.816 E0.91274
G1 X124.691 Y102.133 E0.93736
G1 X126.282 Y102.983 E0.99735
G1 X126.958 Y103.39 E1.0236
G1 X127.554 Y103.834 E1.04832
G1 X128.943 Y104.974 E1.10808
G1 X129.528 Y105.505 E1.13436
G1 X130.024 Y106.054 E1.15897
G1 X131.166 Y107.445 E1.21883
G1 X131.635 Y108.08 E1.24508
G1 X132.017 Y108.718 E1.26982
G1 X132.867 Y110.309 E1.32981
G1 X133.203 Y111.024 E1.35609
G1 X133.451 Y111.72 E1.38066
G1 X133.973 Y113.44 E1.44045
G1 X134.164 Y114.206 E1.4667
G1 X134.272 Y114.943 E1.49148
G1 X134.448 Y116.736 E1.5514
G1 X134.485 Y117.525 E1.57767
G1 X134.448 Y118.259 E1.60212
G1 X134.272 Y120.055 E1.66214
G1 X134.155 Y120.836 E1.6884
G1 X133.973 Y121.558 E1.71317
G1 X133.451 Y123.279 E1.77298
G1 X133.184 Y124.022 E1.79924
G1 X132.868 Y124.689 E1.82379
G1 X132.019 Y126.279 E1.88374
G1 X131.612 Y126.956 E1.91002
G1 X131.167 Y127.554 E1.93481
G1 X130.026 Y128.944 E1.99462
G1 X129.495 Y129.528 E2.02087
G1 X128.946 Y130.024 E2.04548
G1 X127.555 Y131.166 E2.10534
G1 X126.92 Y131.635 E2.1316
G1 X126.282 Y132.017 E2.15633
G1 X124.691 Y132.867 E2.21633
G1 X123.976 Y133.203 E2.2426
G1 X123.279 Y133.451 E2.26721
G1 X121.558 Y133.973 E2.32702
G1 X120.792 Y134.164 E2.35328
G1 X120.056 Y134.272 E2.37802
G1 X118.262 Y134.448 E2.43798
G1 X117.473 Y134.485 E2.46425
G1 X116.738 Y134.448 E2.48873
G1 X114.944 Y134.272 E2.54868
G1 X114.163 Y134.155 E2.57495
G1 X113.442 Y133.973 E2.59968
G1 X111.721 Y133.451 E2.6595
G1 X110.978 Y133.184 E2.68575
G1 X110.309 Y132.867 E2.71038
G1 X108.718 Y132.017 E2.77037
G1 X108.042 Y131.61 E2.79662
G1 X107.445 Y131.166 E2.82136
G1 X106.054 Y130.024 E2.88122
G1 X105.469 Y129.492 E2.90752
G1 X104.974 Y128.944 E2.93208
G1 X103.833 Y127.554 E2.9919
G1 X103.364 Y126.919 E3.01815
G1 X102.981 Y126.279 E3.04296
G1 X102.132 Y124.689 E3.10291
G1 X101.796 Y123.974 E3.12919
G1 X101.549 Y123.279 E3.15372
G1 X101.027 Y121.558 E3.21353
G1 X100.836 Y120.792 E3.23979
G1 X100.728 Y120.056 E3.26453
G1 X100.552 Y118.264 E3.32442
G1 X100.515 Y117.476 E3.35066
G1 X100.552 Y116.742 E3.3751
G1 X100.728 Y114.945 E3.43516
G1 X100.845 Y114.164 E3.46142
G1 X101.027 Y113.44 E3.48625
G1 X101.549 Y111.72 E3.54604
G1 F2700 E-1.45396
G0 F6000 X101.715 Y117.421
G1 F2700 E3.54604
G1 F1200 X101.746 Y116.859 E3.56476
G1 X101.922 Y115.062 E3.62481
G1 X102.033 Y114.344 E3.64898
G1 X102.175 Y113.788 E3.66806
G1 X102.697 Y112.068 E3.72785
G1 X102.946 Y111.386 E3.752
G1 X103.192 Y110.875 E3.77086
G1 X104.042 Y109.284 E3.83085
G1 X104.419 Y108.663 E3.85502
G1 X104.761 Y108.207 E3.87397
G1 X105.901 Y106.818 E3.93374
G1 X106.392 Y106.283 E3.95789
G1 X106.815 Y105.904 E3.97678
G1 X108.206 Y104.762 E4.03664
G1 X108.792 Y104.333 E4.0608
G1 X109.284 Y104.042 E4.07981
G1 X110.875 Y103.192 E4.1398
G1 X111.533 Y102.885 E4.16395
G1 X112.069 Y102.697 E4.18285
G1 X113.79 Y102.175 E4.24266
G1 X114.496 Y102.003 E4.26683
G1 X115.062 Y101.923 E4.28584
G1 X116.856 Y101.747 E4.3458
G1 X117.581 Y101.716 E4.36993
G1 X118.144 Y101.747 E4.38869
G1 X119.938 Y101.923 E4.44864
G1 X120.656 Y102.033 E4.4728
G1 X121.21 Y102.175 E4.49182
G1 X122.931 Y102.697 E4.55164
G1 X123.613 Y102.946 E4.57579
G1 X124.125 Y103.192 E4.59468
G1 X125.716 Y104.042 E4.65468
G1 X126.337 Y104.419 E4.67884
G1 X126.793 Y104.761 E4.6978
G1 X128.182 Y105.901 E4.75756
G1 X128.717 Y106.392 E4.78172
G1 X129.096 Y106.815 E4.80061
G1 X130.238 Y108.206 E4.86046
G1 X130.667 Y108.792 E4.88462
G1 X130.958 Y109.284 E4.90363
G1 X131.808 Y110.875 E4.96363
G1 X132.115 Y111.533 E4.98778
G1 X132.303 Y112.068 E5.00664
G1 X132.825 Y113.788 E5.06642
G1 X132.997 Y114.494 E5.09059
G1 X133.077 Y115.06 E5.1096
G1 X133.253 Y116.853 E5.16952
G1 X133.285 Y117.579 E5.1937
G1 X133.254 Y118.142 E5.21245
G1 X133.078 Y119.938 E5.27247
G1 X132.967 Y120.656 E5.29663
G1 X132.825 Y121.21 E5.31566
G1 X132.303 Y122.931 E5.37547
G1 X132.054 Y123.613 E5.39962
G1 X131.809 Y124.124 E5.41847
G1 X130.96 Y125.714 E5.47842
G1 X130.583 Y126.335 E5.50258
G1 X130.239 Y126.793 E5.52163
G1 X129.098 Y128.183 E5.58145
G1 X128.607 Y128.718 E5.6056
G1 X128.185 Y129.096 E5.62444
G1 X126.794 Y130.238 E5.6843
G1 X126.208 Y130.667 E5.70846
G1 X125.716 Y130.958 E5.72747
G1 X124.125 Y131.808 E5.78746
G1 X123.467 Y132.115 E5.81161
G1 X122.931 Y132.303 E5.83051
G1 X121.21 Y132.825 E5.89032
G1 X120.504 Y132.997 E5.91449
G1 X119.938 Y133.077 E5.9335
G1 X118.144 Y133.253 E5.99346
G1 X117.419 Y133.284 E6.01759
G1 X116.856 Y133.253 E6.03635
G1 X115.062 Y133.077 E6.0963
G1 X114.344 Y132.967 E6.12046
G1 X113.79 Y132.825 E6.13948
G1 X112.069 Y132.303 E6.1993
G1 X111.387 Y132.054 E6.22345
G1 X110.875 Y131.808 E6.24234
G1 X109.284 Y130.958 E6.30234
G1 X108.663 Y130.581 E6.3265
G1 X108.206 Y130.238 E6.3455
G1 X106.815 Y129.096 E6.40536
G1 X106.28 Y128.605 E6.42951
G1 X105.902 Y128.183 E6.44836
G1 X104.761 Y126.793 E6.50817
G1 X104.331 Y126.207 E6.53234
G1 X104.04 Y125.714 E6.55139
G1 X103.191 Y124.124 E6.61134
G1 X102.885 Y123.465 E6.6355
G1 X102.697 Y122.931 E6.65433
G1 X102.175 Y121.21 E6.71415
G1 X102.003 Y120.504 E6.73832
G1 X101.923 Y119.939 E6.7573
G1 X101.747 Y118.147 E6.81718
G1 X101.715 Y117.421 E6.84135
G0 F6000 X101.315 Y117.439
G1 F1200 X101.348 Y116.82 E6.86197
G1 X101.524 Y115.023 E6.92203
G1 X101.637 Y114.283 E6.94692
G1 X101.793 Y113.672 E6.9679
G1 X102.315 Y111.952 E7.02768
G1 X102.57 Y111.249 E7.05255
G1 X102.839 Y110.686 E7.07331
G1 X103.689 Y109.095 E7.1333
G1 X104.076 Y108.455 E7.15818
G1 X104.452 Y107.953 E7.17904
G1 X105.592 Y106.564 E7.23881
G1 X106.097 Y106.012 E7.26369
G1 X106.561 Y105.595 E7.28444
G1 X107.952 Y104.453 E7.3443
G1 X108.555 Y104.01 E7.36918
G1 X109.095 Y103.689 E7.39008
G1 X110.686 Y102.839 E7.45007
G1 X111.364 Y102.522 E7.47497
G1 X111.953 Y102.314 E7.49574
G1 X113.674 Y101.792 E7.55556
G1 X114.401 Y101.614 E7.58045
G1 X115.023 Y101.524 E7.60136
G1 X116.817 Y101.348 E7.66131
G1 X117.564 Y101.315 E7.68618
G1 X118.183 Y101.348 E7.7068
G1 X119.977 Y101.524 E7.76675
G1 X120.717 Y101.637 E7.79165
G1 X121.326 Y101.792 E7.81255
G1 X123.047 Y102.314 E7.87237
G1 X123.75 Y102.569 E7.89724
G1 X124.314 Y102.839 E7.91804
G1 X125.905 Y103.689 E7.97803
G1 X126.545 Y104.076 E8.00291
G1 X127.047 Y104.452 E8.02377
G1 X128.436 Y105.592 E8.08354
G1 X128.988 Y106.097 E8.10842
G1 X129.405 Y106.561 E8.12917
G1 X130.547 Y107.952 E8.18903
G1 X130.99 Y108.555 E8.21391
G1 X131.311 Y109.095 E8.23481
G1 X132.161 Y110.686 E8.2948
G1 X132.478 Y111.364 E8.3197
G1 X132.685 Y111.952 E8.34043
G1 X133.207 Y113.672 E8.40021
G1 X133.386 Y114.399 E8.42512
G1 X133.476 Y115.021 E8.44602
G1 X133.652 Y116.814 E8.50594
G1 X133.685 Y117.561 E8.53081
G1 X133.652 Y118.181 E8.55146
G1 X133.476 Y119.977 E8.61148
G1 X133.363 Y120.716 E8.63635
G1 X133.208 Y121.326 E8.65728
G1 X132.686 Y123.047 E8.7171
G1 X132.431 Y123.75 E8.74197
G1 X132.162 Y124.312 E8.76269
G1 X131.313 Y125.902 E8.82264
G1 X130.926 Y126.542 E8.84752
G1 X130.549 Y127.046 E8.86845
G1 X129.408 Y128.436 E8.92827
G1 X128.903 Y128.988 E8.95315
G1 X128.439 Y129.405 E8.9739
G1 X127.048 Y130.547 E9.03376
G1 X126.445 Y130.99 E9.05864
G1 X125.905 Y131.311 E9.07954
G1 X124.314 Y132.161 E9.13953
G1 X123.636 Y132.478 E9.16443
G1 X123.047 Y132.686 E9.1852
G1 X121.326 Y133.208 E9.24502
G1 X120.599 Y133.386 E9.26991
G1 X119.977 Y133.476 E9.29082
G1 X118.183 Y133.652 E9.35077
G1 X117.436 Y133.685 E9.37564
G1 X116.817 Y133.652 E9.39626
G1 X115.023 Y133.476 E9.45621
G1 X114.283 Y133.363 E9.48111
G1 X113.674 Y133.208 E9.50201
G1 X111.953 Y132.686 E9.56183
G1 X111.25 Y132.431 E9.5867
G1 X110.686 Y132.161 E9.6075
G1 X109.095 Y131.311 E9.66749
G1 X108.455 Y130.924 E9.69237
G1 X107.952 Y130.547 E9.71328
G1 X106.561 Y129.405 E9.77314
G1 X106.009 Y128.9 E9.79802
G1 X105.592 Y128.436 E9.81877
G1 X104.451 Y127.046 E9.87858
G1 X104.008 Y126.444 E9.90344
G1 X103.687 Y125.902 E9.92439
G1 X102.838 Y124.312 E9.98434
G1 X102.522 Y123.634 E10.00922
G1 X102.314 Y123.047 E10.02994
G1 X101.792 Y121.326 E10.08975
G1 X101.614 Y120.599 E10.11465
G1 X101.525 Y119.978 E10.13551
G1 X101.349 Y118.186 E10.1954
G1 X101.315 Y117.439 E10.22027
G0 F6000 X100.915 Y117.457
G1 F1200 X100.95 Y116.781 E10.24279
G1 X101.126 Y114.984 E10.30284
G1 X101.241 Y114.223 E10.32844
G1 X101.41 Y113.556 E10.35132
G1 X101.932 Y111.836 E10.41111
G1 X102.193 Y111.113 E10.43667
G1 X102.486 Y110.498 E10.45933
G1 X103.336 Y108.907 E10.51933
G1 X103.733 Y108.248 E10.54492
G1 X104.143 Y107.699 E10.56771
G1 X105.283 Y106.31 E10.62747
G1 X105.801 Y105.742 E10.65304
G1 X106.307 Y105.286 E10.67569
G1 X107.698 Y104.144 E10.73555
G1 X108.317 Y103.687 E10.76115
G1 X108.907 Y103.336 E10.78398
G1 X110.498 Y102.486 E10.84397
G1 X111.194 Y102.159 E10.86955
G1 X111.837 Y101.932 E10.89223
G1 X113.558 Y101.41 E10.95205
G1 X114.305 Y101.225 E10.97764
G1 X114.983 Y101.126 E11.00043
G1 X116.777 Y100.95 E11.06039
G1 X117.546 Y100.915 E11.08599
G1 X118.223 Y100.95 E11.10854
G1 X120.017 Y101.126 E11.16849
G1 X120.777 Y101.241 E11.19406
G1 X121.442 Y101.41 E11.21688
G1 X123.163 Y101.932 E11.2767
G1 X123.886 Y102.193 E11.30226
G1 X124.502 Y102.486 E11.32495
G1 X126.093 Y103.336 E11.38494
G1 X126.752 Y103.733 E11.41053
G1 X127.301 Y104.143 E11.43332
G1 X128.69 Y105.283 E11.49309
G1 X129.258 Y105.801 E11.51866
G1 X129.714 Y106.307 E11.54131
G1 X130.856 Y107.698 E11.60117
G1 X131.313 Y108.317 E11.62676
G1 X131.664 Y108.907 E11.6496
G1 X132.514 Y110.498 E11.70959
G1 X132.841 Y111.194 E11.73517
G1 X133.068 Y111.836 E11.75782
G1 X133.59 Y113.556 E11.8176
G1 X133.775 Y114.303 E11.8432
G1 X133.874 Y114.982 E11.86602
G1 X134.05 Y116.775 E11.92594
G1 X134.085 Y117.543 E11.95151
G1 X134.05 Y118.22 E11.97406
G1 X133.874 Y120.016 E12.03408
G1 X133.759 Y120.776 E12.05965
G1 X133.59 Y121.442 E12.0825
G1 X133.068 Y123.163 E12.14231
G1 X132.807 Y123.886 E12.16788
G1 X132.515 Y124.501 E12.19052
G1 X131.666 Y126.091 E12.25047
G1 X131.269 Y126.749 E12.27603
G1 X130.858 Y127.3 E12.2989
G1 X129.717 Y128.69 E12.35871
G1 X129.199 Y129.258 E12.38428
G1 X128.693 Y129.714 E12.40693
G1 X127.302 Y130.856 E12.46679
G1 X126.683 Y131.313 E12.49238
G1 X126.093 Y131.664 E12.51522
G1 X124.502 Y132.514 E12.57521
G1 X123.806 Y132.841 E12.60079
G1 X123.163 Y133.068 E12.62347
G1 X121.442 Y133.59 E12.68329
G1 X120.695 Y133.775 E12.70888
G1 X120.017 Y133.874 E12.73167
G1 X118.223 Y134.05 E12.79163
G1 X117.454 Y134.085 E12.81723
G1 X116.777 Y134.05 E12.83978
G1 X114.983 Y133.874 E12.89973
G1 X114.223 Y133.759 E12.9253
G1 X113.558 Y133.59 E12.94812
G1 X111.837 Y133.068 E13.00793
G1 X111.114 Y132.807 E13.0335
G1 X110.498 Y132.514 E13.05619
G1 X108.907 Y131.664 E13.11618
G1 X108.248 Y131.267 E13.14177
G1 X107.698 Y130.856 E13.16461
G1 X106.307 Y129.714 E13.22447
G1 X105.739 Y129.196 E13.25004
G1 X105.283 Y128.69 E13.27269
G1 X104.142 Y127.3 E13.3325
G1 X103.686 Y126.681 E13.35807
G1 X103.334 Y126.091 E13.38093
G1 X102.485 Y124.501 E13.44088
G1 X102.159 Y123.804 E13.46647
G1 X101.932 Y123.163 E13.48909
G1 X101.41 Y121.442 E13.5489
G1 X101.225 Y120.695 E13.5745
G1 X101.126 Y120.017 E13.59729
G1 X100.95 Y118.225 E13.65718
G1 X100.915 Y117.457 E13.68275
G0 F6000 X102.116 Y117.405
G1 F1200 X102.145 Y116.898 E13.69964
G1 X102.321 Y115.101 E13.75969
G1 X102.429 Y114.405 E13.78312
G1 X102.558 Y113.904 E13.80032
G1 X103.08 Y112.184 E13.86011
G1 X103.323 Y111.524 E13.8835
G1 X103.545 Y111.063 E13.90052
G1 X104.395 Y109.472 E13.96051
G1 X104.761 Y108.871 E13.98392
G1 X105.07 Y108.461 E14.00099
G1 X106.21 Y107.072 E14.06076
G1 X106.687 Y106.554 E14.08418
G1 X107.069 Y106.213 E14.10121
G1 X108.46 Y105.071 E14.16107
G1 X109.028 Y104.656 E14.18447
G1 X109.472 Y104.395 E14.2016
G1 X111.063 Y103.545 E14.26159
G1 X111.702 Y103.249 E14.28502
G1 X112.185 Y103.08 E14.30204
G1 X113.906 Y102.558 E14.36185
G1 X114.591 Y102.392 E14.38529
G1 X115.101 Y102.321 E14.40242
G1 X116.895 Y102.145 E14.46238
G1 X117.598 Y102.116 E14.48578
G1 X118.105 Y102.145 E14.50267
G1 X119.899 Y102.321 E14.56262
G1 X120.595 Y102.429 E14.58605
G1 X121.094 Y102.558 E14.60319
G1 X122.815 Y103.08 E14.66301
G1 X123.476 Y103.322 E14.68642
G1 X123.937 Y103.545 E14.70345
G1 X125.528 Y104.395 E14.76345
G1 X126.129 Y104.761 E14.78685
G1 X126.539 Y105.07 E14.80393
G1 X127.928 Y106.21 E14.86369
G1 X128.446 Y106.687 E14.88711
G1 X128.787 Y107.069 E14.90415
G1 X129.929 Y108.46 E14.964
G1 X130.344 Y109.028 E14.9874
G1 X130.605 Y109.472 E15.00453
G1 X131.455 Y111.063 E15.06453
G1 X131.751 Y111.702 E15.08795
G1 X131.92 Y112.184 E15.10494
G1 X132.442 Y113.904 E15.16472
G1 X132.608 Y114.589 E15.18816
G1 X132.679 Y115.099 E15.20529
G1 X132.855 Y116.892 E15.26521
G1 X132.884 Y117.596 E15.28865
G1 X132.855 Y118.103 E15.30554
G1 X132.679 Y119.899 E15.36556
G1 X132.571 Y120.594 E15.38895
G1 X132.442 Y121.094 E15.40613
G1 X131.92 Y122.815 E15.46594
G1 X131.678 Y123.476 E15.48936
G1 X131.456 Y123.935 E15.50631
G1 X130.607 Y125.525 E15.56626
G1 X130.241 Y126.127 E15.5897
G1 X129.93 Y126.539 E15.60687
G1 X128.789 Y127.929 E15.66668
G1 X128.312 Y128.447 E15.6901
G1 X127.931 Y128.787 E15.70708
G1 X126.54 Y129.929 E15.76694
G1 X125.972 Y130.344 E15.79034
G1 X125.528 Y130.605 E15.80747
G1 X123.937 Y131.455 E15.86747
G1 X123.298 Y131.751 E15.89089
G1 X122.815 Y131.92 E15.90791
G1 X121.094 Y132.442 E15.96772
G1 X120.409 Y132.608 E15.99117
G1 X119.899 Y132.679 E16.00829
G1 X118.105 Y132.855 E16.06825
G1 X117.402 Y132.884 E16.09165
G1 X116.895 Y132.855 E16.10854
G1 X115.101 Y132.679 E16.16849
G1 X114.405 Y132.571 E16.19192
G1 X113.906 Y132.442 E16.20906
G1 X112.185 Y131.92 E16.26888
G1 X111.524 Y131.678 E16.29229
G1 X111.063 Y131.455 E16.30932
G1 X109.472 Y130.605 E16.36932
G1 X108.871 Y130.239 E16.39272
G1 X108.46 Y129.929 E16.40985
G1 X107.069 Y128.787 E16.46971
G1 X106.551 Y128.31 E16.49313
G1 X106.211 Y127.929 E16.51011
G1 X105.07 Y126.539 E16.56992
G1 X104.655 Y125.97 E16.59335
G1 X104.393 Y125.525 E16.61052
G1 X103.544 Y123.935 E16.67047
G1 X103.248 Y123.296 E16.6939
G1 X103.08 Y122.815 E16.71084
G1 X102.558 Y121.094 E16.77066
G1 X102.392 Y120.409 E16.7941
G1 X102.321 Y119.9 E16.81119
G1 X102.145 Y118.108 E16.87108
G1 X102.116 Y117.405 E16.89448
G0 F6000 X102.516 Y117.389
G1 F1200 X102.543 Y116.937 E16.90954
G1 X102.719 Y115.14 E16.9696
G1 X102.825 Y114.467 E16.99226
G1 X102.941 Y114.021 E17.00759
G1 X103.463 Y112.301 E17.06737
G1 X103.699 Y111.662 E17.09003
G1 X103.897 Y111.252 E17.10517
G1 X104.747 Y109.661 E17.16517
G1 X105.103 Y109.08 E17.18783
G1 X105.38 Y108.714 E17.2031
G1 X106.52 Y107.325 E17.26286
G1 X106.982 Y106.825 E17.2855
