;FLAVOR:Marlin
;TIME:24040
;Filament used: 28.2913m
;Layer height: 0.2
;MINX:19.7
;MINY:19.7
;MINZ:0.2
;MAXX:215.3
;MAXY:215.3
;MAXZ:4
;Generated with Cura_SteamEngine 5.0.0
M82 ;absolute extrusion mode
; Ender 3 Custom Start G-code
M140 S60 ; start preheating the bed
M104 S200 ?T0 ; start preheating hotend
G92 E0 ; Reset Extruder
G28 ; Home all axes
G29 ;
G1 Z2.0 F3000 ; Move Z Axis up little to prevent scratching of Heat Bed
G1 X0.1 Y20 Z0.3 F5000.0 ; Move to start position
G1 X0.1 Y200.0 Z0.3 F1500.0 E15 ; Draw the first line
G1 X0.4 Y200.0 Z0.3 F5000.0 ; Move to side a little
G1 X0.4 Y20 Z0.3 F1500.0 E30 ; Draw the second line
G92 E0 ; Reset Extruder
G1 Z2.0 F3000 ; Move Z Axis up little to prevent scratching of Heat Bed
G1 X5 Y20 Z0.3 F5000.0 ; Move over to prevent blob squish
G92 E0
G92 E0
G1 F2700 E-5
;LAYER_COUNT:20
;LAYER:0
M107
G0 F6000 X22.123 Y21.849 Z0.2
G0 X19.7 Y27.5
;TYPE:SKIRT
G1 F2700 E0
G1 F1200 X19.74 Y26.711 E0.02628
G1 X19.859 Y25.931 E0.05252
G1 X20.057 Y25.166 E0.0788
G1 X20.331 Y24.426 E0.10505
G1 X20.679 Y23.717 E0.13132
G1 X21.097 Y23.046 E0.15761
G1 X21.58 Y22.422 E0.18385
G1 X22.123 Y21.849 E0.21011
G1 X22.722 Y21.334 E0.23638
G1 X23.37 Y20.883 E0.26264
G1 X24.061 Y20.499 E0.28894
G1 X24.786 Y20.187 E0.31519
G1 X25.539 Y19.95 E0.34144
G1 X26.313 Y19.791 E0.36773
G1 X27.098 Y19.71 E0.39397
G1 X27.5 Y19.7 E0.40735
G1 X207.5 Y19.7 E6.39417
G1 X208.289 Y19.74 E6.42045
G1 X209.069 Y19.859 E6.44669
G1 X209.834 Y20.057 E6.47297
G1 X210.574 Y20.331 E6.49922
G1 X211.283 Y20.679 E6.52549
G1 X211.954 Y21.097 E6.55178
G1 X212.578 Y21.58 E6.57803
G1 X213.151 Y22.123 E6.60428
G1 X213.666 Y22.722 E6.63056
G1 X214.117 Y23.37 E6.65682
G1 X214.501 Y24.061 E6.68311
G1 X214.813 Y24.786 E6.70936
G1 X215.05 Y25.539 E6.73562
G1 X215.209 Y26.313 E6.7619
G1 X215.29 Y27.098 E6.78815
G1 X215.3 Y27.5 E6.80152
G1 X215.3 Y207.5 E12.78834
G1 X215.26 Y208.289 E12.81462
G1 X215.141 Y209.069 E12.84086
G1 X214.943 Y209.834 E12.86715
G1 X214.669 Y210.574 E12.89339
G1 X214.321 Y211.283 E12.91966
G1 X213.903 Y211.954 E12.94595
G1 X213.42 Y212.578 E12.9722
G1 X212.877 Y213.151 E12.99846
G1 X212.278 Y213.666 E13.02473
G1 X211.63 Y214.117 E13.05099
G1 X210.939 Y214.501 E13.07728
G1 X210.214 Y214.813 E13.10353
G1 X209.461 Y215.05 E13.12979
G1 X208.687 Y215.209 E13.15607
G1 X207.902 Y215.29 E13.18232
G1 X207.5 Y215.3 E13.19569
G1 X27.5 Y215.3 E19.18252
G1 X26.711 Y215.26 E19.20879
G1 X25.931 Y215.141 E19.23504
G1 X25.166 Y214.943 E19.26132
G1 X24.426 Y214.669 E19.28756
G1 X23.717 Y214.321 E19.31383
G1 X23.046 Y213.903 E19.34013
G1 X22.422 Y213.42 E19.36637
G1 X21.849 Y212.877 E19.39263
G1 X21.334 Y212.278 E19.4189
G1 X20.883 Y211.63 E19.44516
G1 X20.499 Y210.939 E19.47145
G1 X20.187 Y210.214 E19.49771
G1 X19.95 Y209.461 E19.52396
G1 X19.791 Y208.687 E19.55024
G1 X19.71 Y207.902 E19.57649
G1 X19.7 Y207.5 E19.58986
G1 X19.7 Y27.5 E25.57669
G0 F6000 X20.1 Y27.5
G1 F1200 X20.14 Y26.732 E25.60227
G1 X20.259 Y25.972 E25.62785
G1 X20.457 Y25.229 E25.65343
G1 X20.731 Y24.51 E25.67902
G1 X21.078 Y23.824 E25.70459
G1 X21.494 Y23.177 E25.73017
G1 X21.975 Y22.577 E25.75575
G1 X22.516 Y22.03 E25.78134
G1 X23.111 Y21.542 E25.80693
G1 X23.753 Y21.119 E25.8325
G1 X24.436 Y20.764 E25.85811
G1 X25.151 Y20.483 E25.88366
G1 X25.893 Y20.277 E25.90927
G1 X26.651 Y20.149 E25.93484
G1 X27.5 Y20.1 E25.96312
G1 X207.5 Y20.1 E31.94995
G1 X208.268 Y20.14 E31.97553
G1 X209.028 Y20.259 E32.00111
G1 X209.771 Y20.457 E32.02669
G1 X210.49 Y20.731 E32.05228
G1 X211.176 Y21.078 E32.07785
G1 X211.823 Y21.494 E32.10343
G1 X212.423 Y21.975 E32.12901
G1 X212.97 Y22.516 E32.1546
G1 X213.458 Y23.111 E32.18019
G1 X213.881 Y23.753 E32.20576
G1 X214.236 Y24.436 E32.23136
G1 X214.517 Y25.151 E32.25692
G1 X214.723 Y25.893 E32.28253
G1 X214.851 Y26.651 E32.3081
G1 X214.9 Y27.5 E32.33638
G1 X214.9 Y207.5 E38.32321
G1 X214.86 Y208.268 E38.34878
G1 X214.741 Y209.028 E38.37437
G1 X214.543 Y209.771 E38.39994
G1 X214.269 Y210.49 E38.42554
G1 X213.922 Y211.176 E38.45111
G1 X213.506 Y211.823 E38.47669
G1 X213.025 Y212.423 E38.50227
G1 X212.484 Y212.97 E38.52785
G1 X211.889 Y213.458 E38.55345
G1 X211.247 Y213.881 E38.57902
G1 X210.564 Y214.236 E38.60462
G1 X209.849 Y214.517 E38.63017
G1 X209.107 Y214.723 E38.65579
G1 X208.349 Y214.851 E38.68135
G1 X207.5 Y214.9 E38.70964
G1 X27.5 Y214.9 E44.69646
G1 X26.732 Y214.86 E44.72204
G1 X25.972 Y214.741 E44.74763
G1 X25.229 Y214.543 E44.7732
G1 X24.51 Y214.269 E44.79879
G1 X23.824 Y213.922 E44.82436
G1 X23.177 Y213.506 E44.84995
G1 X22.577 Y213.025 E44.87552
G1 X22.03 Y212.484 E44.90111
G1 X21.542 Y211.889 E44.92671
G1 X21.119 Y211.247 E44.95228
G1 X20.764 Y210.564 E44.97788
G1 X20.483 Y209.849 E45.00343
G1 X20.277 Y209.107 E45.02904
G1 X20.149 Y208.349 E45.05461
G1 X20.1 Y207.5 E45.0829
G1 X20.1 Y27.5 E51.06972
G0 F6000 X20.5 Y27.5
G1 F1200 X20.54 Y26.753 E51.0946
G1 X20.659 Y26.015 E51.11947
G1 X20.857 Y25.293 E51.14437
G1 X21.13 Y24.597 E51.16923
G1 X21.477 Y23.934 E51.19412
G1 X21.892 Y23.311 E51.21902
G1 X22.371 Y22.737 E51.24388
G1 X22.908 Y22.216 E51.26877
G1 X23.498 Y21.757 E51.29363
G1 X24.134 Y21.362 E51.31853
G1 X24.808 Y21.038 E51.34341
G1 X25.513 Y20.788 E51.36829
G1 X26.241 Y20.614 E51.39318
G1 X26.983 Y20.519 E51.41806
G1 X27.5 Y20.5 E51.43527
G1 X207.5 Y20.5 E57.42209
G1 X208.247 Y20.54 E57.44697
G1 X208.985 Y20.659 E57.47184
G1 X209.707 Y20.857 E57.49674
G1 X210.403 Y21.13 E57.5216
G1 X211.066 Y21.477 E57.54649
G1 X211.689 Y21.892 E57.57139
G1 X212.263 Y22.371 E57.59626
G1 X212.784 Y22.908 E57.62114
G1 X213.243 Y23.498 E57.646
G1 X213.638 Y24.134 E57.6709
G1 X213.962 Y24.808 E57.69578
G1 X214.212 Y25.513 E57.72066
G1 X214.386 Y26.241 E57.74555
G1 X214.481 Y26.983 E57.77043
G1 X214.5 Y27.5 E57.78764
G1 X214.5 Y207.5 E63.77446
G1 X214.46 Y208.247 E63.79934
G1 X214.341 Y208.985 E63.82421
G1 X214.143 Y209.707 E63.84911
G1 X213.87 Y210.403 E63.87397
G1 X213.523 Y211.066 E63.89886
G1 X213.108 Y211.689 E63.92376
G1 X212.629 Y212.263 E63.94863
G1 X212.092 Y212.784 E63.97351
G1 X211.502 Y213.243 E63.99837
G1 X210.866 Y213.638 E64.02328
G1 X210.192 Y213.962 E64.04815
G1 X209.487 Y214.212 E64.07303
G1 X208.759 Y214.386 E64.09792
G1 X208.017 Y214.481 E64.1228
G1 X207.5 Y214.5 E64.14001
G1 X27.5 Y214.5 E70.12683
G1 X26.753 Y214.46 E70.15172
G1 X26.015 Y214.341 E70.17658
G1 X25.293 Y214.143 E70.20148
G1 X24.597 Y213.87 E70.22634
G1 X23.934 Y213.523 E70.25123
G1 X23.311 Y213.108 E70.27613
G1 X22.737 Y212.629 E70.301
G1 X22.216 Y212.092 E70.32588
G1 X21.757 Y211.502 E70.35074
G1 X21.362 Y210.866 E70.37565
G1 X21.038 Y210.192 E70.40052
G1 X20.788 Y209.487 E70.4254
G1 X20.614 Y208.759 E70.45029
G1 X20.519 Y208.017 E70.47517
G1 X20.5 Y207.5 E70.49238
G1 X20.5 Y27.5 E76.47921
G0 F6000 X20.9 Y27.5
G1 F1200 X20.94 Y26.775 E76.50336
G1 X21.059 Y26.058 E76.52753
G1 X21.257 Y25.359 E76.55169
G1 X21.53 Y24.686 E76.57585
G1 X21.875 Y24.047 E76.6
G1 X22.289 Y23.45 E76.62417
G1 X22.765 Y22.902 E76.64831
G1 X23.299 Y22.409 E76.67248
G1 X23.884 Y21.979 E76.69663
G1 X24.513 Y21.615 E76.7208
G1 X25.178 Y21.322 E76.74497
G1 X25.871 Y21.104 E76.76913
G1 X26.583 Y20.964 E76.79327
G1 X27.5 Y20.9 E76.82384
G1 X207.5 Y20.9 E82.81066
G1 X208.225 Y20.94 E82.83481
G1 X208.942 Y21.059 E82.85899
G1 X209.641 Y21.257 E82.88315
G1 X210.314 Y21.53 E82.90731
G1 X210.953 Y21.875 E82.93146
G1 X211.55 Y22.289 E82.95562
G1 X212.098 Y22.765 E82.97977
G1 X212.591 Y23.299 E83.00394
G1 X213.021 Y23.884 E83.02809
G1 X213.385 Y24.513 E83.05226
G1 X213.678 Y25.178 E83.07643
G1 X213.896 Y25.871 E83.10059
G1 X214.036 Y26.583 E83.12473
G1 X214.1 Y27.5 E83.1553
G1 X214.1 Y207.5 E89.14212
G1 X214.06 Y208.225 E89.16627
G1 X213.941 Y208.942 E89.19045
G1 X213.743 Y209.641 E89.21461
G1 X213.47 Y210.314 E89.23877
G1 X213.125 Y210.953 E89.26292
G1 X212.711 Y211.55 E89.28708
G1 X212.235 Y212.098 E89.31123
G1 X211.701 Y212.591 E89.3354
G1 X211.116 Y213.021 E89.35955
G1 X210.487 Y213.385 E89.38372
G1 X209.822 Y213.678 E89.40789
G1 X209.129 Y213.896 E89.43205
G1 X208.417 Y214.036 E89.45619
G1 X207.5 Y214.1 E89.48676
G1 X27.5 Y214.1 E95.47358
G1 X26.775 Y214.06 E95.49773
G1 X26.058 Y213.941 E95.52191
G1 X25.359 Y213.743 E95.54607
G1 X24.686 Y213.47 E95.57023
G1 X24.047 Y213.125 E95.59438
G1 X23.45 Y212.711 E95.61854
G1 X22.902 Y212.235 E95.64269
G1 X22.409 Y211.701 E95.66686
G1 X21.979 Y211.116 E95.69101
G1 X21.615 Y210.487 E95.71518
G1 X21.322 Y209.822 E95.73935
G1 X21.104 Y209.129 E95.76351
G1 X20.964 Y208.417 E95.78764
G1 X20.9 Y207.5 E95.81822
G1 X20.9 Y27.5 E101.80504
G0 F6000 X21.3 Y27.5
G1 F1200 X21.34 Y26.797 E101.82846
G1 X21.459 Y26.103 E101.85188
G1 X21.657 Y25.428 E101.87528
G1 X21.929 Y24.779 E101.89868
G1 X22.274 Y24.165 E101.92211
G1 X22.685 Y23.594 E101.94551
G1 X23.159 Y23.073 E101.96893
G1 X23.689 Y22.609 E101.99236
G1 X24.268 Y22.209 E102.01577
G1 X24.889 Y21.877 E102.03919
G1 X25.543 Y21.617 E102.0626
G1 X26.223 Y21.433 E102.08603
G1 X26.919 Y21.327 E102.10944
G1 X27.5 Y21.3 E102.12879
G1 X207.5 Y21.3 E108.11561
G1 X208.203 Y21.34 E108.13903
G1 X208.897 Y21.459 E108.16245
G1 X209.572 Y21.657 E108.18585
G1 X210.221 Y21.929 E108.20925
G1 X210.835 Y22.274 E108.23268
G1 X211.406 Y22.685 E108.25608
G1 X211.927 Y23.159 E108.27951
G1 X212.391 Y23.689 E108.30293
G1 X212.791 Y24.268 E108.32634
G1 X213.123 Y24.889 E108.34976
G1 X213.383 Y25.543 E108.37317
G1 X213.567 Y26.223 E108.3966
G1 X213.673 Y26.919 E108.42002
G1 X213.7 Y27.5 E108.43936
G1 X213.7 Y207.5 E114.42619
G1 X213.66 Y208.203 E114.44961
G1 X213.541 Y208.897 E114.47302
G1 X213.343 Y209.572 E114.49642
G1 X213.071 Y210.221 E114.51983
G1 X212.726 Y210.835 E114.54325
G1 X212.315 Y211.406 E114.56665
G1 X211.841 Y211.927 E114.59008
G1 X211.311 Y212.391 E114.61351
G1 X210.732 Y212.791 E114.63691
G1 X210.111 Y213.123 E114.66033
G1 X209.457 Y213.383 E114.68374
G1 X208.777 Y213.567 E114.70717
G1 X208.081 Y213.673 E114.73059
G1 X207.5 Y213.7 E114.74993
G1 X27.5 Y213.7 E120.73676
G1 X26.797 Y213.66 E120.76018
G1 X26.103 Y213.541 E120.7836
G1 X25.428 Y213.343 E120.80699
G1 X24.779 Y213.071 E120.8304
G1 X24.165 Y212.726 E120.85382
G1 X23.594 Y212.315 E120.87722
G1 X23.073 Y211.841 E120.90065
G1 X22.609 Y211.311 E120.92408
G1 X22.209 Y210.732 E120.94748
G1 X21.877 Y210.111 E120.97091
G1 X21.617 Y209.457 E120.99431
G1 X21.433 Y208.777 E121.01774
G1 X21.327 Y208.081 E121.04116
G1 X21.3 Y207.5 E121.0605
G1 X21.3 Y27.5 E127.04733
G0 F6000 X21.7 Y27.5
G1 F1200 X21.74 Y26.82 E127.06998
G1 X21.859 Y26.15 E127.09262
G1 X22.056 Y25.498 E127.11527
G1 X22.328 Y24.874 E127.13791
G1 X22.672 Y24.286 E127.16057
G1 X23.082 Y23.742 E127.18323
G1 X23.553 Y23.251 E127.20586
G1 X24.078 Y22.817 E127.22851
G1 X24.65 Y22.448 E127.25115
G1 X25.262 Y22.149 E127.27381
G1 X25.904 Y21.924 E127.29643
G1 X26.569 Y21.775 E127.3191
G1 X27.5 Y21.7 E127.35017
G1 X207.5 Y21.7 E133.33699
G1 X208.18 Y21.74 E133.35965
G1 X208.85 Y21.859 E133.38228
G1 X209.502 Y22.056 E133.40493
G1 X210.126 Y22.328 E133.42757
G1 X210.714 Y22.672 E133.45023
G1 X211.258 Y23.082 E133.47289
G1 X211.749 Y23.553 E133.49552
G1 X212.183 Y24.078 E133.51817
G1 X212.552 Y24.65 E133.54081
G1 X212.851 Y25.262 E133.56347
G1 X213.076 Y25.904 E133.58609
G1 X213.225 Y26.569 E133.60876
G1 X213.3 Y27.5 E133.63983
G1 X213.3 Y207.5 E139.62665
G1 X213.26 Y208.18 E139.64931
G1 X213.141 Y208.85 E139.67194
G1 X212.944 Y209.502 E139.69459
G1 X212.672 Y210.126 E139.71723
G1 X212.328 Y210.714 E139.73989
G1 X211.918 Y211.258 E139.76255
G1 X211.447 Y211.749 E139.78518
G1 X210.922 Y212.183 E139.80783
G1 X210.35 Y212.552 E139.83047
G1 X209.738 Y212.851 E139.85313
G1 X209.096 Y213.076 E139.87575
G1 X208.431 Y213.225 E139.89842
G1 X207.5 Y213.3 E139.92949
G1 X27.5 Y213.3 E145.91631
G1 X26.82 Y213.26 E145.93897
G1 X26.15 Y213.141 E145.9616
G1 X25.498 Y212.944 E145.98425
G1 X24.874 Y212.672 E146.00689
G1 X24.286 Y212.328 E146.02955
G1 X23.742 Y211.918 E146.05221
G1 X23.251 Y211.447 E146.07484
G1 X22.817 Y210.922 E146.09749
G1 X22.448 Y210.35 E146.12013
G1 X22.149 Y209.738 E146.14279
G1 X21.924 Y209.096 E146.16541
G1 X21.775 Y208.431 E146.18808
G1 X21.7 Y207.5 E146.21915
G1 X21.7 Y27.5 E152.20597
G0 F6000 X22.1 Y27.5
G1 F1200 X22.14 Y26.844 E152.22783
G1 X22.259 Y26.198 E152.24968
G1 X22.456 Y25.571 E152.27154
G1 X22.728 Y24.973 E152.29339
G1 X23.07 Y24.412 E152.31524
G1 X23.478 Y23.897 E152.33709
G1 X23.945 Y23.435 E152.35894
G1 X24.465 Y23.034 E152.38078
G1 X25.029 Y22.698 E152.40262
G1 X25.631 Y22.434 E152.42448
G1 X26.26 Y22.244 E152.44634
G1 X26.907 Y22.133 E152.46817
G1 X27.5 Y22.1 E152.48792
G1 X207.5 Y22.1 E158.47475
G1 X208.156 Y22.14 E158.49661
G1 X208.802 Y22.259 E158.51845
G1 X209.429 Y22.456 E158.54031
G1 X210.027 Y22.728 E158.56216
G1 X210.588 Y23.07 E158.58402
G1 X211.103 Y23.478 E158.60587
G1 X211.565 Y23.945 E158.62772
G1 X211.966 Y24.465 E158.64956
G1 X212.302 Y25.029 E158.67139
G1 X212.566 Y25.631 E158.69326
G1 X212.756 Y26.26 E158.71511
G1 X212.867 Y26.907 E158.73695
G1 X212.9 Y27.5 E158.7567
G1 X212.9 Y207.5 E164.74352
G1 X212.86 Y208.156 E164.76538
G1 X212.741 Y208.802 E164.78723
G1 X212.544 Y209.429 E164.80909
G1 X212.272 Y210.027 E164.83094
G1 X211.93 Y210.588 E164.85279
G1 X211.522 Y211.103 E164.87465
G1 X211.055 Y211.565 E164.89649
G1 X210.535 Y211.966 E164.91833
G1 X209.971 Y212.302 E164.94017
G1 X209.369 Y212.566 E164.96203
G1 X208.74 Y212.756 E164.98389
G1 X208.093 Y212.867 E165.00572
G1 X207.5 Y212.9 E165.02548
G1 X27.5 Y212.9 E171.0123
G1 X26.844 Y212.86 E171.03416
G1 X26.198 Y212.741 E171.05601
G1 X25.571 Y212.544 E171.07787
G1 X24.973 Y212.272 E171.09972
G1 X24.412 Y211.93 E171.12157
G1 X23.897 Y211.522 E171.14342
G1 X23.435 Y211.055 E171.16527
G1 X23.034 Y210.535 E171.18711
G1 X22.698 Y209.971 E171.20895
G1 X22.434 Y209.369 E171.23081
G1 X22.244 Y208.74 E171.25266
G1 X22.133 Y208.093 E171.2745
G1 X22.1 Y207.5 E171.29425
G1 X22.1 Y27.5 E177.28108
G0 F6000 X22.5 Y27.5
G1 F1200 X22.54 Y26.869 E177.3021
G1 X22.659 Y26.248 E177.32314
G1 X22.856 Y25.648 E177.34414
G1 X23.127 Y25.076 E177.36519
G1 X23.467 Y24.544 E177.38619
G1 X23.873 Y24.059 E177.40723
G1 X24.336 Y23.629 E177.42824
G1 X24.85 Y23.26 E177.44929
G1 X25.406 Y22.96 E177.4703
G1 X25.995 Y22.732 E177.49131
G1 X26.609 Y22.58 E177.51235
G1 X27.5 Y22.5 E177.5421
G1 X207.5 Y22.5 E183.52893
G1 X208.131 Y22.54 E183.54995
G1 X208.752 Y22.659 E183.57098
G1 X209.352 Y22.856 E183.59199
G1 X209.924 Y23.127 E183.61304
G1 X210.456 Y23.467 E183.63404
G1 X210.941 Y23.873 E183.65508
G1 X211.371 Y24.336 E183.67609
G1 X211.74 Y24.85 E183.69714
G1 X212.04 Y25.406 E183.71815
G1 X212.268 Y25.995 E183.73916
G1 X212.42 Y26.609 E183.7602
G1 X212.5 Y27.5 E183.78995
G1 X212.5 Y207.5 E189.77677
G1 X212.46 Y208.131 E189.7978
G1 X212.341 Y208.752 E189.81883
G1 X212.144 Y209.352 E189.83984
G1 X211.873 Y209.924 E189.86089
G1 X211.533 Y210.456 E189.88189
G1 X211.127 Y210.941 E189.90293
G1 X210.664 Y211.371 E189.92394
G1 X210.15 Y211.74 E189.94499
G1 X209.594 Y212.04 E189.966
G1 X209.005 Y212.268 E189.98701
G1 X208.391 Y212.42 E190.00805
G1 X207.5 Y212.5 E190.0378
G1 X27.5 Y212.5 E196.02462
G1 X26.869 Y212.46 E196.04565
G1 X26.248 Y212.341 E196.06668
G1 X25.648 Y212.144 E196.08769
G1 X25.076 Y211.873 E196.10874
G1 X24.544 Y211.533 E196.12974
G1 X24.059 Y211.127 E196.15078
G1 X23.629 Y210.664 E196.17179
G1 X23.26 Y210.15 E196.19284
G1 X22.96 Y209.594 E196.21385
G1 X22.732 Y209.005 E196.23486
G1 X22.58 Y208.391 E196.2559
G1 X22.5 Y207.5 E196.28565
G1 X22.5 Y27.5 E202.27247
G0 F6000 X22.9 Y27.5
G1 F1200 X22.94 Y26.895 E202.29264
G1 X23.059 Y26.301 E202.31279
G1 X23.255 Y25.727 E202.33296
G1 X23.526 Y25.184 E202.35315
G1 X23.865 Y24.681 E202.37332
G1 X24.267 Y24.228 E202.39347
G1 X24.725 Y23.831 E202.41363
G1 X25.232 Y23.498 E202.4338
G1 X25.778 Y23.234 E202.45397
G1 X26.354 Y23.045 E202.47414
G1 X26.95 Y22.933 E202.49431
G1 X27.5 Y22.9 E202.51263
G1 X207.5 Y22.9 E208.49946
G1 X208.105 Y22.94 E208.51962
G1 X208.699 Y23.059 E208.53977
G1 X209.273 Y23.255 E208.55994
G1 X209.816 Y23.526 E208.58013
G1 X210.319 Y23.865 E208.6003
G1 X210.772 Y24.267 E208.62045
G1 X211.169 Y24.725 E208.64061
G1 X211.502 Y25.232 E208.66078
G1 X211.766 Y25.778 E208.68095
